%
(Header)
(Generated by gcodetools from Inkscape.)
(Using default header. To add your own header create file "header" in the output dir.)
M3
(Header end.)
G21 (All units in mm)

(Start cutting path id: path137)
(Change tool to Default tool)

G00 Z -55.0000
G00 X 65.2439 Y 306.1062

G01 Z -76.0000 F 1500.0000(Penetrate)
G01 X 68.4618 Y 309.7629 Z -76.0000 F 1500.0000
G00 Z -55.0000

(End cutting path id: path137)


(Start cutting path id: path144)
(Change tool to Default tool)

G00 Z -55.0000
G00 X 72.1186 Y 309.7629

G01 Z -76.0000 F 1500.0000(Penetrate)
G01 X 72.1186 Y 320.8062 Z -76.0000 F 1500.0000
G00 Z -55.0000

(End cutting path id: path144)


(Start cutting path id: path145)
(Change tool to Default tool)

G00 Z -55.0000
G00 X 70.3633 Y 320.8794

G01 Z -76.0000 F 1500.0000(Penetrate)
G01 X 70.3633 Y 322.9272 Z -76.0000 F 1500.0000
G01 X 73.8058 Y 322.9272 Z -76.0000
G01 X 73.8058 Y 320.8794 Z -76.0000
G01 X 70.3633 Y 320.8794 Z -76.0000
G00 Z -55.0000

(End cutting path id: path145)


(Start cutting path id: path146)
(Change tool to Default tool)

G00 Z -55.0000
G00 X 74.9298 Y 320.1534

G01 Z -76.0000 F 1500.0000(Penetrate)
G01 X 74.9298 Y 328.1691 Z -76.0000 F 1500.0000
G01 X 69.2696 Y 328.1691 Z -76.0000
G01 X 69.2696 Y 320.1534 Z -76.0000
G00 Z -55.0000

(End cutting path id: path146)


(Start cutting path id: path147)
(Change tool to Default tool)

G00 Z -55.0000
G00 X 71.8992 Y 328.2294

G01 Z -76.0000 F 1500.0000(Penetrate)
G01 X 71.8992 Y 343.8802 Z -76.0000 F 1500.0000
G00 Z -55.0000

(End cutting path id: path147)


(Start cutting path id: rect133)
(Change tool to Default tool)

G00 Z -55.0000
G00 X 88.3311 Y 343.9501

G01 Z -76.0000 F 1500.0000(Penetrate)
G01 X 65.1934 Y 343.9501 Z -76.0000 F 1500.0000
G02 X 64.4676 Y 344.2507 Z -76.0000 I 0.0000 J 1.0264
G02 X 64.1670 Y 344.9764 Z -76.0000 I 0.7257 J 0.7257
G01 X 64.1670 Y 358.6476 Z -76.0000
G02 X 64.4676 Y 359.3734 Z -76.0000 I 1.0264 J 0.0000
G02 X 65.1934 Y 359.6740 Z -76.0000 I 0.7257 J -0.7257
G01 X 88.3311 Y 359.6740 Z -76.0000
G02 X 89.0569 Y 359.3734 Z -76.0000 I -0.0000 J -1.0264
G02 X 89.3575 Y 358.6476 Z -76.0000 I -0.7257 J -0.7257
G01 X 89.3575 Y 344.9764 Z -76.0000
G02 X 89.0569 Y 344.2507 Z -76.0000 I -1.0264 J 0.0000
G02 X 88.3311 Y 343.9501 Z -76.0000 I -0.7257 J 0.7257
G01 X 88.3311 Y 343.9501 Z -76.0000
G00 Z -55.0000

(End cutting path id: rect133)


(Start cutting path id: path136)
(Change tool to Default tool)

G00 Z -55.0000
G00 X 86.7455 Y 309.8361

G01 Z -76.0000 F 1500.0000(Penetrate)
G01 X 65.7559 Y 309.8361 Z -76.0000 F 1500.0000
G00 Z -55.0000

(End cutting path id: path136)


(Start cutting path id: path138)
(Change tool to Default tool)

G00 Z -55.0000
G00 X 68.1327 Y 306.1062

G01 Z -76.0000 F 1500.0000(Penetrate)
G01 X 71.3507 Y 309.7629 Z -76.0000 F 1500.0000
G00 Z -55.0000

(End cutting path id: path138)


(Start cutting path id: path139)
(Change tool to Default tool)

G00 Z -55.0000
G00 X 71.0216 Y 306.1062

G01 Z -76.0000 F 1500.0000(Penetrate)
G01 X 74.2395 Y 309.7629 Z -76.0000 F 1500.0000
G00 Z -55.0000

(End cutting path id: path139)


(Start cutting path id: path140)
(Change tool to Default tool)

G00 Z -55.0000
G00 X 73.9104 Y 306.1062

G01 Z -76.0000 F 1500.0000(Penetrate)
G01 X 77.1283 Y 309.7629 Z -76.0000 F 1500.0000
G00 Z -55.0000

(End cutting path id: path140)


(Start cutting path id: path141)
(Change tool to Default tool)

G00 Z -55.0000
G00 X 76.7992 Y 306.1062

G01 Z -76.0000 F 1500.0000(Penetrate)
G01 X 80.0171 Y 309.7629 Z -76.0000 F 1500.0000
G00 Z -55.0000

(End cutting path id: path141)


(Start cutting path id: path134)
(Change tool to Default tool)

G00 Z -55.0000
G00 X 82.1380 Y 309.9823

G01 Z -76.0000 F 1500.0000(Penetrate)
G01 X 82.1380 Y 314.0779 Z -76.0000 F 1500.0000
G01 X 78.7282 Y 316.0466 Z -76.0000
G01 X 84.7559 Y 318.3092 Z -76.0000
G01 X 78.7282 Y 320.4430 Z -76.0000
G01 X 84.7559 Y 322.5978 Z -76.0000
G01 X 78.7282 Y 324.8394 Z -76.0000
G01 X 84.7559 Y 326.8865 Z -76.0000
G01 X 78.7282 Y 329.2358 Z -76.0000
G01 X 84.7559 Y 331.1751 Z -76.0000
G01 X 78.7282 Y 333.6322 Z -76.0000
G01 X 84.7559 Y 335.4638 Z -76.0000
G01 X 78.7282 Y 338.0286 Z -76.0000
G01 X 82.6389 Y 339.8599 Z -76.0000
G01 X 82.6389 Y 343.9168 Z -76.0000
G00 Z -55.0000

(End cutting path id: path134)


(Start cutting path id: path143)
(Change tool to Default tool)

G00 Z -55.0000
G00 X 82.5768 Y 306.1062

G01 Z -76.0000 F 1500.0000(Penetrate)
G01 X 85.7947 Y 309.7629 Z -76.0000 F 1500.0000
G00 Z -55.0000

(End cutting path id: path143)


(Start cutting path id: path142)
(Change tool to Default tool)

G00 Z -55.0000
G00 X 79.6880 Y 306.1062

G01 Z -76.0000 F 1500.0000(Penetrate)
G01 X 82.9059 Y 309.7629 Z -76.0000 F 1500.0000
G00 Z -55.0000

(End cutting path id: path142)


(Start cutting path id: path128-4)
(Change tool to Default tool)

G00 Z -55.0000
G00 X 53.7652 Y 296.5071

G01 Z -76.0000 F 1500.0000(Penetrate)
G03 X 46.9617 Y 292.9900 Z -76.0000 I 0.6921 J -9.6777 F 1500.0000
G03 X 42.4422 Y 287.0020 Z -76.0000 I 69.9972 J -57.5299
G03 X 33.0055 Y 269.3609 Z -76.0000 I 113.5188 J -72.0689
G02 X 22.9415 Y 252.0617 Z -76.0000 I -83.2285 J 36.8422
G02 X 18.3271 Y 247.5405 Z -76.0000 I -17.1913 J 12.9302
G02 X 11.7448 Y 246.7876 Z -76.0000 I -3.9632 J 5.4992
G02 X 4.6260 Y 253.1926 Z -76.0000 I 7.8358 J 15.8679
G02 X -0.3332 Y 261.3177 Z -76.0000 I 248.7283 J 157.3890
G02 X -8.1288 Y 276.6021 Z -76.0000 I 199.9036 J 111.5874
G03 X -17.0397 Y 291.2837 Z -76.0000 I -70.1074 J -32.5064
G03 X -21.6207 Y 295.4763 Z -76.0000 I -14.0012 J -10.6990
G03 X -28.0117 Y 295.9185 Z -76.0000 I -3.6052 J -5.6991
G03 X -35.0431 Y 289.3757 Z -76.0000 I 8.8787 J -16.5912
G03 X -39.9841 Y 281.2104 Z -76.0000 I 210.9270 J -133.2159
G03 X -47.8531 Y 265.7794 Z -76.0000 I 199.3440 J -111.3759
G02 X -56.9480 Y 251.0114 Z -76.0000 I -66.6411 J 30.8565
G02 X -61.5075 Y 247.1265 Z -76.0000 I -12.7940 J 10.3974
G02 X -67.6416 Y 246.9309 Z -76.0000 I -3.2498 J 5.6367
G02 X -70.0149 Y 248.4025 Z -76.0000 I 3.7084 J 8.6300
G02 X -72.0449 Y 250.3086 Z -76.0000 I 18.1625 J 21.3780
G00 Z -55.0000

(End cutting path id: path128-4)


(Start cutting path id: path80-5)
(Change tool to Default tool)

G00 Z -55.0000
G00 X -51.4285 Y 330.0948

G01 Z -76.0000 F 1500.0000(Penetrate)
G01 X -51.0837 Y 330.0948 Z -76.0000 F 1500.0000
G02 X -51.0586 Y 330.5064 Z -76.0000 I 3.3877 J -0.0000
G02 X -50.8621 Y 330.8090 Z -76.0000 I 0.4080 J -0.0499
G02 X -50.5896 Y 330.8992 Z -76.0000 I 0.2262 J -0.2267
G03 X -50.0248 Y 330.8582 Z -76.0000 I 0.5648 J 3.8675
G01 X -48.4980 Y 330.8582 Z -76.0000
G03 X -49.3152 Y 330.2555 Z -76.0000 I 19.4245 J -27.1946
G02 X -50.0494 Y 329.7254 Z -76.0000 I -10.8485 J 14.2518
G03 X -50.9994 Y 328.9534 Z -76.0000 I 4.4244 J -6.4154
G03 X -51.4285 Y 327.9523 Z -76.0000 I 0.9534 J -1.0012
G03 X -50.8212 Y 326.8337 Z -76.0000 I 1.3338 J -0.0000
G03 X -49.3599 Y 326.4008 Z -76.0000 I 1.4613 J 2.2500
G03 X -47.9721 Y 326.8626 Z -76.0000 I -0.0000 J 2.3160
G03 X -47.5129 Y 327.7799 Z -76.0000 I -0.6865 J 0.9173
G03 X -47.7960 Y 328.2098 Z -76.0000 I -0.4679 J 0.0000
G03 X -47.9808 Y 328.2478 Z -76.0000 I -0.1848 J -0.4299
G03 X -48.2391 Y 328.1589 Z -76.0000 I -0.0000 J -0.4198
G03 X -48.4241 Y 327.7799 Z -76.0000 I 0.2958 J -0.3790
G03 X -48.2835 Y 327.4561 Z -76.0000 I 0.4433 J -0.0000
G03 X -47.9808 Y 327.3366 Z -76.0000 I 0.3027 J 0.3238
G02 X -48.4427 Y 326.9154 Z -76.0000 I -0.9341 J 0.5605
G02 X -49.1875 Y 326.7456 Z -76.0000 I -0.7447 J 1.5484
G02 X -50.1610 Y 327.0773 Z -76.0000 I -0.0000 J 1.5943
G02 X -50.5912 Y 327.9523 Z -76.0000 I 0.6746 J 0.8750
G02 X -50.2996 Y 328.8220 Z -76.0000 I 1.4428 J 0.0000
G02 X -49.5323 Y 329.6269 Z -76.0000 I 3.8821 J -2.9327
G01 X -47.6114 Y 331.2522 Z -76.0000
G02 X -47.5318 Y 331.3307 Z -76.0000 I 5.4140 J -5.4140
G03 X -47.5129 Y 331.3753 Z -76.0000 I -0.0434 J 0.0447
G01 X -47.5129 Y 331.6216 Z -76.0000
G01 X -51.1576 Y 331.6216 Z -76.0000
G01 X -51.4285 Y 330.0948 Z -76.0000
G00 Z -55.0000

(Change tool to Default tool)

G00 Z -55.0000
G00 X -51.4285 Y 330.0948

G00 Z -55.0000

(End cutting path id: path80-5)


(Start cutting path id: path78-4)
(Change tool to Default tool)

G00 Z -55.0000
G00 X -46.0054 Y 332.2976

G01 Z -76.0000 F 1500.0000(Penetrate)
G03 X -45.9019 Y 331.8227 Z -76.0000 I 1.1418 J -0.0000 F 1500.0000
G03 X -45.4143 Y 331.5095 Z -76.0000 I 0.4876 J 0.2230
G03 X -45.0086 Y 331.6948 Z -76.0000 I 0.0000 J 0.5371
G03 X -44.8479 Y 332.1252 Z -76.0000 I -0.4964 J 0.4304
G03 X -45.0450 Y 332.5192 Z -76.0000 I -0.4925 J -0.0000
G02 X -45.4390 Y 333.3073 Z -76.0000 I 0.5910 J 0.7880
G02 X -45.1456 Y 334.5688 Z -76.0000 I 2.8591 J 0.0000
G02 X -43.4935 Y 335.5975 Z -76.0000 I 1.6521 J -0.8123
G02 X -42.7990 Y 335.3519 Z -76.0000 I -0.0000 J -1.1046
G02 X -42.3853 Y 334.7356 Z -76.0000 I -0.7903 J -0.9775
G03 X -42.6668 Y 334.1572 Z -76.0000 I 1.9872 J -1.3248
G03 X -42.7793 Y 333.4550 Z -76.0000 I 2.1343 J -0.7022
G03 X -42.7158 Y 333.2457 Z -76.0000 I 0.3767 J 0.0000
G03 X -42.5084 Y 333.1349 Z -76.0000 I 0.2074 J 0.1386
G03 X -41.8748 Y 333.7938 Z -76.0000 I 0.0000 J 0.6341
G02 X -41.8928 Y 334.7110 Z -76.0000 I 23.3989 J 0.9171
G02 X -41.3424 Y 335.2586 Z -76.0000 I 2.1571 J -1.6179
G02 X -40.3167 Y 335.5975 Z -76.0000 I 1.0257 J -1.3824
G02 X -39.6327 Y 335.2636 Z -76.0000 I 0.0000 J -0.8676
G02 X -39.3070 Y 334.3169 Z -76.0000 I -1.2132 J -0.9467
G02 X -40.2837 Y 332.1031 Z -76.0000 I -2.9974 J 0.0000
G03 X -40.4152 Y 331.8050 Z -76.0000 I 0.2720 J -0.2980
G03 X -40.3530 Y 331.6334 Z -76.0000 I 0.2679 J 0.0000
G03 X -40.1936 Y 331.5588 Z -76.0000 I 0.1594 J 0.1331
G03 X -40.0692 Y 331.5945 Z -76.0000 I 0.0000 J 0.2345
G03 X -39.9473 Y 331.7065 Z -76.0000 I -0.2398 J 0.3832
G03 X -39.7337 Y 331.9980 Z -76.0000 I -1.7988 J 1.5419
G03 X -39.5287 Y 332.3468 Z -76.0000 I -7.0360 J 4.3718
G03 X -39.0438 Y 333.4672 Z -76.0000 I -4.1624 J 2.4666
G03 X -38.8637 Y 334.7356 Z -76.0000 I -4.3785 J 1.2684
G03 X -39.1644 Y 335.8526 Z -76.0000 I -2.2254 J -0.0000
G03 X -40.2182 Y 336.4594 Z -76.0000 I -1.0538 J -0.6116
G03 X -41.2445 Y 336.1481 Z -76.0000 I -0.0000 J -1.8472
G03 X -41.9913 Y 335.4005 Z -76.0000 I 1.5008 J -2.2461
G03 X -42.5206 Y 336.1553 Z -76.0000 I -1.5303 J -0.5101
G03 X -43.3950 Y 336.4594 Z -76.0000 I -0.8744 J -1.1049
G03 X -45.8581 Y 334.3292 Z -76.0000 I 0.0000 J -2.4892
G03 X -46.0054 Y 332.2976 Z -76.0000 I 13.9417 J -2.0316
G01 X -46.0054 Y 332.2976 Z -76.0000
G00 Z -55.0000

(Change tool to Default tool)

G00 Z -55.0000
G00 X -46.0054 Y 332.2976

G00 Z -55.0000

(End cutting path id: path78-4)


(Start cutting path id: path85)
(Change tool to Default tool)

G00 Z -55.0000
G00 X -47.9316 Y 338.7371

G01 Z -76.0000 F 1500.0000(Penetrate)
G03 X -47.8149 Y 339.2414 Z -76.0000 I -13.9688 J 3.4956 F 1500.0000
G03 X -47.8084 Y 339.3035 Z -76.0000 I -0.2924 J 0.0621
G03 X -47.9066 Y 339.5235 Z -76.0000 I -0.2955 J 0.0000
G03 X -48.1039 Y 339.5990 Z -76.0000 I -0.1973 J -0.2200
G03 X -48.2472 Y 339.5624 Z -76.0000 I 0.0000 J -0.2992
G03 X -48.4733 Y 339.3281 Z -76.0000 I 0.2607 J -0.4778
G02 X -48.4901 Y 339.2063 Z -76.0000 I -0.4507 J -0.0000
G03 X -48.6211 Y 338.7124 Z -76.0000 I 17.2214 J -4.8318
G03 X -48.8891 Y 337.6291 Z -76.0000 I 67.8551 J -17.3583
G03 X -48.8920 Y 337.6042 Z -76.0000 I 0.1038 J -0.0248
G03 X -49.1241 Y 337.1802 Z -76.0000 I 3.5469 J -2.2168
G02 X -50.5173 Y 336.2991 Z -76.0000 I -1.3932 J 0.6609
G02 X -50.9269 Y 336.4742 Z -76.0000 I 0.0000 J 0.5664
G02 X -51.0837 Y 336.8655 Z -76.0000 I 0.4095 J 0.3913
G02 X -50.9157 Y 337.7005 Z -76.0000 I 2.1593 J -0.0000
G03 X -50.5666 Y 338.5647 Z -76.0000 I -32.8691 J 13.7830
G03 X -50.5131 Y 338.7115 Z -76.0000 I -0.6102 J 0.3054
G03 X -50.4927 Y 338.8848 Z -76.0000 I -0.7253 J 0.1734
G03 X -50.7363 Y 339.3855 Z -76.0000 I -0.6362 J -0.0000
G03 X -51.3546 Y 339.5990 Z -76.0000 I -0.6183 J -0.7884
G03 X -52.5393 Y 338.7702 Z -76.0000 I 0.0000 J -1.2612
G03 X -52.6105 Y 338.3677 Z -76.0000 I 1.1028 J -0.4026
G03 X -52.5120 Y 338.2692 Z -76.0000 I 0.0985 J 0.0000
G02 X -52.4628 Y 338.2692 Z -76.0000 I 0.0492 J -454.7581
G03 X -52.3421 Y 338.3188 Z -76.0000 I 0.0000 J 0.1716
G03 X -52.2658 Y 338.4416 Z -76.0000 I -0.2187 J 0.2211
G02 X -51.8787 Y 339.1093 Z -76.0000 I 1.6900 J -0.5337
G02 X -51.3792 Y 339.3281 Z -76.0000 I 0.4994 J -0.4605
G02 X -51.1996 Y 339.2368 Z -76.0000 I -0.0000 J -0.2224
G02 X -51.1330 Y 339.0326 Z -76.0000 I -0.2798 J -0.2043
G02 X -51.1702 Y 338.8276 Z -76.0000 I -0.5824 J 0.0000
G02 X -51.2561 Y 338.6139 Z -76.0000 I -4.7869 J 1.7997
G02 X -51.5482 Y 337.9085 Z -76.0000 I -13.9966 J 5.3833
G03 X -51.7486 Y 336.9640 Z -76.0000 I 2.1260 J -0.9445
G03 X -51.4493 Y 336.3391 Z -76.0000 I 0.8019 J 0.0000
G03 X -50.5665 Y 336.0282 Z -76.0000 I 0.8828 J 1.0975
G03 X -49.5710 Y 336.3518 Z -76.0000 I -0.0000 J 1.6929
G03 X -49.0890 Y 336.8162 Z -76.0000 I -1.4297 J 1.9665
G03 X -48.5790 Y 336.1096 Z -76.0000 I 0.7848 J 0.0290
G03 X -48.1285 Y 336.0282 Z -76.0000 I 0.4505 J 1.2057
G03 X -47.4387 Y 336.4105 Z -76.0000 I 0.0000 J 0.8135
G03 X -47.1189 Y 337.2349 Z -76.0000 I -2.0010 J 1.2506
G03 X -47.2142 Y 337.3506 Z -76.0000 I -0.1179 J 0.0000
G03 X -47.2912 Y 337.3580 Z -76.0000 I -0.0770 J -0.3959
G03 X -47.4096 Y 337.3077 Z -76.0000 I -0.0000 J -0.1645
G03 X -47.4636 Y 337.2102 Z -76.0000 I 0.1553 J -0.1498
G02 X -47.7240 Y 336.5310 Z -76.0000 I -3.2421 J 0.8532
G02 X -48.1039 Y 336.2991 Z -76.0000 I -0.3799 J 0.1953
G02 X -48.3691 Y 336.4685 Z -76.0000 I 0.0000 J 0.2923
G02 X -48.4241 Y 336.7177 Z -76.0000 I 0.5379 J 0.2493
G02 X -48.3938 Y 336.9068 Z -76.0000 I 0.6049 J -0.0000
G03 X -48.3009 Y 337.3334 Z -76.0000 I -2.0055 J 0.6598
G03 X -48.1881 Y 337.7059 Z -76.0000 I -2.8171 J 1.0567
G03 X -48.1285 Y 338.0229 Z -76.0000 I -3.5894 J 0.8381
G01 X -47.9316 Y 338.7371 Z -76.0000
G00 Z -55.0000

(Change tool to Default tool)

G00 Z -55.0000
G00 X -47.9316 Y 338.7371

G00 Z -55.0000

(End cutting path id: path85)


(Start cutting path id: path95)
(Change tool to Default tool)

G00 Z -55.0000
G00 X -47.4366 Y 345.7195

G01 Z -76.0000 F 1500.0000(Penetrate)
G03 X -47.3332 Y 345.2446 Z -76.0000 I 1.1417 J -0.0000 F 1500.0000
G03 X -46.8456 Y 344.9315 Z -76.0000 I 0.4876 J 0.2230
G03 X -46.4398 Y 345.1167 Z -76.0000 I 0.0000 J 0.5371
G03 X -46.2792 Y 345.5471 Z -76.0000 I -0.4964 J 0.4304
G03 X -46.4762 Y 345.9411 Z -76.0000 I -0.4925 J -0.0000
G02 X -46.8702 Y 346.7292 Z -76.0000 I 0.5910 J 0.7880
G02 X -46.5769 Y 347.9907 Z -76.0000 I 2.8591 J 0.0000
G02 X -44.9247 Y 349.0194 Z -76.0000 I 1.6521 J -0.8123
G02 X -44.2303 Y 348.7738 Z -76.0000 I -0.0000 J -1.1046
G02 X -43.8166 Y 348.1575 Z -76.0000 I -0.7903 J -0.9775
G03 X -44.0980 Y 347.5791 Z -76.0000 I 1.9869 J -1.3246
G03 X -44.2106 Y 346.8769 Z -76.0000 I 2.1344 J -0.7022
G03 X -44.1471 Y 346.6677 Z -76.0000 I 0.3767 J 0.0000
G03 X -43.9397 Y 346.5568 Z -76.0000 I 0.2074 J 0.1386
G03 X -43.3061 Y 347.2157 Z -76.0000 I 0.0000 J 0.6341
G02 X -43.3240 Y 348.1329 Z -76.0000 I 23.3989 J 0.9171
G02 X -42.7736 Y 348.6805 Z -76.0000 I 2.1570 J -1.6177
G02 X -41.7479 Y 349.0194 Z -76.0000 I 1.0257 J -1.3824
G02 X -41.0639 Y 348.6856 Z -76.0000 I 0.0000 J -0.8676
G02 X -40.7383 Y 347.7389 Z -76.0000 I -1.2132 J -0.9467
G02 X -41.7150 Y 345.5250 Z -76.0000 I -2.9974 J 0.0000
G03 X -41.8464 Y 345.2270 Z -76.0000 I 0.2720 J -0.2980
G03 X -41.7842 Y 345.0553 Z -76.0000 I 0.2679 J 0.0000
G03 X -41.6248 Y 344.9807 Z -76.0000 I 0.1594 J 0.1331
G03 X -41.5004 Y 345.0165 Z -76.0000 I 0.0000 J 0.2344
G03 X -41.3785 Y 345.1285 Z -76.0000 I -0.2405 J 0.3839
G03 X -41.1650 Y 345.4200 Z -76.0000 I -1.7994 J 1.5423
G03 X -40.9599 Y 345.7688 Z -76.0000 I -7.0291 J 4.3677
G03 X -40.4750 Y 346.8891 Z -76.0000 I -4.1621 J 2.4665
G03 X -40.2950 Y 348.1575 Z -76.0000 I -4.3786 J 1.2684
G03 X -40.5956 Y 349.2745 Z -76.0000 I -2.2254 J 0.0000
G03 X -41.6494 Y 349.8814 Z -76.0000 I -1.0538 J -0.6116
G03 X -42.6757 Y 349.5700 Z -76.0000 I 0.0000 J -1.8472
G03 X -43.4225 Y 348.8224 Z -76.0000 I 1.5007 J -2.2460
G03 X -43.9518 Y 349.5772 Z -76.0000 I -1.5303 J -0.5101
G03 X -44.8262 Y 349.8814 Z -76.0000 I -0.8744 J -1.1049
G03 X -47.2894 Y 347.7511 Z -76.0000 I 0.0000 J -2.4892
G03 X -47.4366 Y 345.7195 Z -76.0000 I 13.9416 J -2.0316
G01 X -47.4366 Y 345.7195 Z -76.0000
G00 Z -55.0000

(Change tool to Default tool)

G00 Z -55.0000
G00 X -47.4366 Y 345.7195

G00 Z -55.0000

(End cutting path id: path95)


(Start cutting path id: path97)
(Change tool to Default tool)

G00 Z -55.0000
G00 X -49.3642 Y 350.5892

G01 Z -76.0000 F 1500.0000(Penetrate)
G03 X -49.2476 Y 351.0935 Z -76.0000 I -13.9688 J 3.4956 F 1500.0000
G03 X -49.2411 Y 351.1556 Z -76.0000 I -0.2924 J 0.0621
G03 X -49.3393 Y 351.3756 Z -76.0000 I -0.2955 J -0.0000
G03 X -49.5366 Y 351.4511 Z -76.0000 I -0.1973 J -0.2200
G03 X -49.6799 Y 351.4146 Z -76.0000 I 0.0000 J -0.2992
G03 X -49.9060 Y 351.1803 Z -76.0000 I 0.2607 J -0.4778
G02 X -49.9228 Y 351.0585 Z -76.0000 I -0.4507 J 0.0000
G03 X -50.0537 Y 350.5646 Z -76.0000 I 17.2214 J -4.8318
G03 X -50.3217 Y 349.4812 Z -76.0000 I 67.8551 J -17.3583
G03 X -50.3246 Y 349.4564 Z -76.0000 I 0.1038 J -0.0248
G03 X -50.5567 Y 349.0323 Z -76.0000 I 3.5469 J -2.2168
G02 X -51.9500 Y 348.1512 Z -76.0000 I -1.3932 J 0.6609
G02 X -52.3595 Y 348.3263 Z -76.0000 I -0.0000 J 0.5664
G02 X -52.5164 Y 348.7176 Z -76.0000 I 0.4095 J 0.3913
G02 X -52.3484 Y 349.5526 Z -76.0000 I 2.1593 J -0.0000
G03 X -51.9992 Y 350.4168 Z -76.0000 I -32.8826 J 13.7882
G03 X -51.9458 Y 350.5636 Z -76.0000 I -0.6102 J 0.3054
G03 X -51.9253 Y 350.7370 Z -76.0000 I -0.7253 J 0.1734
G03 X -52.1689 Y 351.2376 Z -76.0000 I -0.6362 J -0.0000
G03 X -52.7872 Y 351.4511 Z -76.0000 I -0.6183 J -0.7884
G03 X -53.9720 Y 350.6224 Z -76.0000 I -0.0000 J -1.2612
G03 X -54.0432 Y 350.2198 Z -76.0000 I 1.1028 J -0.4026
G03 X -53.9447 Y 350.1213 Z -76.0000 I 0.0985 J 0.0000
G02 X -53.8954 Y 350.1213 Z -76.0000 I 0.0492 J -454.7581
G03 X -53.7748 Y 350.1709 Z -76.0000 I -0.0000 J 0.1716
G03 X -53.6984 Y 350.2937 Z -76.0000 I -0.2187 J 0.2211
G02 X -53.3113 Y 350.9614 Z -76.0000 I 1.6900 J -0.5337
G02 X -52.8119 Y 351.1803 Z -76.0000 I 0.4994 J -0.4605
G02 X -52.6322 Y 351.0890 Z -76.0000 I -0.0000 J -0.2224
G02 X -52.5656 Y 350.8847 Z -76.0000 I -0.2798 J -0.2043
G02 X -52.6029 Y 350.6798 Z -76.0000 I -0.5824 J 0.0000
G02 X -52.6887 Y 350.4661 Z -76.0000 I -4.7869 J 1.7997
G02 X -52.9809 Y 349.7607 Z -76.0000 I -13.9966 J 5.3833
G03 X -53.1813 Y 348.8161 Z -76.0000 I 2.1260 J -0.9445
G03 X -52.8820 Y 348.1913 Z -76.0000 I 0.8019 J -0.0000
G03 X -51.9992 Y 347.8803 Z -76.0000 I 0.8828 J 1.0975
G03 X -51.0037 Y 348.2040 Z -76.0000 I -0.0000 J 1.6929
G03 X -50.5216 Y 348.6684 Z -76.0000 I -1.4297 J 1.9665
G03 X -50.0117 Y 347.9617 Z -76.0000 I 0.7848 J 0.0290
G03 X -49.5612 Y 347.8803 Z -76.0000 I 0.4505 J 1.2057
G03 X -48.8714 Y 348.2627 Z -76.0000 I 0.0000 J 0.8135
G03 X -48.5515 Y 349.0870 Z -76.0000 I -2.0010 J 1.2506
G03 X -48.6469 Y 349.2027 Z -76.0000 I -0.1179 J 0.0000
G03 X -48.7239 Y 349.2101 Z -76.0000 I -0.0770 J -0.3959
G03 X -48.8423 Y 349.1598 Z -76.0000 I 0.0000 J -0.1645
G03 X -48.8963 Y 349.0624 Z -76.0000 I 0.1553 J -0.1498
G02 X -49.1567 Y 348.3831 Z -76.0000 I -3.2421 J 0.8532
G02 X -49.5366 Y 348.1512 Z -76.0000 I -0.3799 J 0.1953
G02 X -49.8018 Y 348.3206 Z -76.0000 I 0.0000 J 0.2923
G02 X -49.8567 Y 348.5699 Z -76.0000 I 0.5379 J 0.2493
G02 X -49.8264 Y 348.7589 Z -76.0000 I 0.6049 J 0.0000
G03 X -49.7336 Y 349.1855 Z -76.0000 I -2.0055 J 0.6598
G03 X -49.6207 Y 349.5581 Z -76.0000 I -2.8171 J 1.0567
G03 X -49.5612 Y 349.8751 Z -76.0000 I -3.5894 J 0.8381
G01 X -49.3642 Y 350.5892 Z -76.0000
G00 Z -55.0000

(Change tool to Default tool)

G00 Z -55.0000
G00 X -49.3642 Y 350.5892

G00 Z -55.0000

(End cutting path id: path97)


(Start cutting path id: path99)
(Change tool to Default tool)

G00 Z -55.0000
G00 X -60.2664 Y 345.6456

G01 Z -76.0000 F 1500.0000(Penetrate)
G03 X -59.9126 Y 345.8642 Z -76.0000 I -0.1933 J 0.7084 F 1500.0000
G03 X -59.7985 Y 346.1628 Z -76.0000 I -0.3335 J 0.2986
G03 X -59.9667 Y 346.4726 Z -76.0000 I -0.3694 J 0.0000
G03 X -60.1679 Y 346.5322 Z -76.0000 I -0.2012 J -0.3098
G03 X -60.3387 Y 346.4919 Z -76.0000 I -0.0000 J -0.3822
G03 X -60.7097 Y 345.8919 Z -76.0000 I 0.2997 J -0.6000
G03 X -60.2206 Y 345.1405 Z -76.0000 I 0.8217 J 0.0000
G03 X -59.2321 Y 344.9315 Z -76.0000 I 0.9886 J 2.2326
G03 X -57.3276 Y 346.0732 Z -76.0000 I 0.0000 J 2.1592
G03 X -57.2127 Y 346.5322 Z -76.0000 I -0.8591 J 0.4590
G03 X -57.4035 Y 347.1261 Z -76.0000 I -1.0200 J 0.0000
G03 X -57.6067 Y 347.3448 Z -76.0000 I -0.9562 J -0.6849
G03 X -57.9604 Y 347.5343 Z -76.0000 I -0.6594 J -0.8059
G03 X -58.8381 Y 347.7389 Z -76.0000 I -1.9177 J -6.2434
G02 X -59.2892 Y 347.8382 Z -76.0000 I 2.3738 J 11.8574
G02 X -59.7739 Y 348.4530 Z -76.0000 I 0.1477 J 0.6148
G02 X -59.7139 Y 348.7505 Z -76.0000 I 0.7676 J -0.0000
G02 X -59.2074 Y 349.3396 Z -76.0000 I 1.1659 J -0.4901
G02 X -58.3273 Y 349.5823 Z -76.0000 I 0.9403 J -1.6925
G02 X -58.0993 Y 349.5858 Z -76.0000 I 0.2281 J -7.3356
G02 X -57.3685 Y 349.5072 Z -76.0000 I -0.0000 J -3.4348
G02 X -56.7694 Y 349.1179 Z -76.0000 I -0.2147 J -0.9860
G03 X -57.2341 Y 348.8807 Z -76.0000 I 0.1037 J -0.7767
G03 X -57.3851 Y 348.5023 Z -76.0000 I 0.3987 J -0.3784
G03 X -57.2408 Y 348.1861 Z -76.0000 I 0.4187 J -0.0000
G03 X -56.9665 Y 348.0836 Z -76.0000 I 0.2744 J 0.3162
G03 X -56.5685 Y 348.2460 Z -76.0000 I 0.0000 J 0.5688
G03 X -56.3262 Y 348.8224 Z -76.0000 I -0.5643 J 0.5765
G03 X -56.7198 Y 349.5116 Z -76.0000 I -0.8001 J 0.0000
G03 X -58.0746 Y 349.8814 Z -76.0000 I -1.3548 J -2.2972
G03 X -60.3275 Y 348.6390 Z -76.0000 I -0.0000 J -2.6637
G03 X -60.4880 Y 348.0836 Z -76.0000 I 0.8802 J -0.5553
G03 X -59.6647 Y 346.9718 Z -76.0000 I 1.1624 J 0.0000
G03 X -58.9612 Y 346.8031 Z -76.0000 I 1.7397 J 5.7036
G03 X -58.7091 Y 346.7514 Z -76.0000 I 0.7302 J 2.9238
G02 X -58.5179 Y 346.7046 Z -76.0000 I -0.1929 J -1.2005
G02 X -58.0475 Y 346.4555 Z -76.0000 I -0.1651 J -0.8805
G02 X -57.9269 Y 346.1628 Z -76.0000 I -0.2946 J -0.2927
G02 X -58.0362 Y 345.7942 Z -76.0000 I -0.6761 J 0.0000
G02 X -58.3702 Y 345.4486 Z -76.0000 I -1.0570 J 0.6874
G02 X -58.9028 Y 345.2708 Z -76.0000 I -0.6921 J 1.1864
G02 X -59.2321 Y 345.2516 Z -76.0000 I -0.3292 J 2.8172
G02 X -59.6367 Y 345.2703 Z -76.0000 I 0.0000 J 4.3923
G02 X -60.2664 Y 345.6456 Z -76.0000 I 0.0784 J 0.8473
G01 X -60.2664 Y 345.6456 Z -76.0000
G00 Z -55.0000

(Change tool to Default tool)

G00 Z -55.0000
G00 X -60.2664 Y 345.6456

G00 Z -55.0000

(End cutting path id: path99)


(Start cutting path id: path101)
(Change tool to Default tool)

G00 Z -55.0000
G00 X -66.5372 Y 347.2956

G01 Z -76.0000 F 1500.0000(Penetrate)
G01 X -69.9110 Y 347.2956 Z -76.0000 F 1500.0000
G03 X -70.1272 Y 347.2716 Z -76.0000 I -0.0000 J -0.9861
G03 X -70.3050 Y 347.0493 Z -76.0000 I 0.0499 J -0.2223
G03 X -70.1104 Y 346.7843 Z -76.0000 I 0.2777 J 0.0000
G03 X -69.9110 Y 346.7538 Z -76.0000 I 0.1993 J 0.6361
G01 X -66.5372 Y 346.7538 Z -76.0000
G01 X -66.5372 Y 343.3800 Z -76.0000
G03 X -66.5214 Y 343.1824 Z -76.0000 I 1.2451 J 0.0000
G03 X -66.2910 Y 342.9860 Z -76.0000 I 0.2305 J 0.0371
G03 X -66.0474 Y 343.1727 Z -76.0000 I 0.0000 J 0.2522
G03 X -66.0201 Y 343.3800 Z -76.0000 I -0.7714 J 0.2073
G01 X -66.0201 Y 346.7538 Z -76.0000
G01 X -62.6463 Y 346.7538 Z -76.0000
G03 X -62.4266 Y 346.7775 Z -76.0000 I -0.0000 J 1.0290
G03 X -62.2276 Y 347.0247 Z -76.0000 I -0.0540 J 0.2472
G03 X -62.4099 Y 347.2638 Z -76.0000 I -0.2479 J 0.0000
G03 X -62.6463 Y 347.2956 Z -76.0000 I -0.2363 J -0.8616
G01 X -66.0201 Y 347.2956 Z -76.0000
G01 X -66.0201 Y 350.6694 Z -76.0000
G03 X -66.0403 Y 350.8986 Z -76.0000 I -1.3111 J 0.0000
G03 X -66.2663 Y 351.0880 Z -76.0000 I -0.2261 J -0.0401
G03 X -66.5135 Y 350.8890 Z -76.0000 I -0.0000 J -0.2530
G03 X -66.5372 Y 350.6694 Z -76.0000 I 1.0052 J -0.2196
G01 X -66.5372 Y 347.2956 Z -76.0000
G00 Z -55.0000

(Change tool to Default tool)

G00 Z -55.0000
G00 X -66.5372 Y 347.2956

G00 Z -55.0000

(End cutting path id: path101)


(Start cutting path id: path103)
(Change tool to Default tool)

G00 Z -55.0000
G00 X -78.6146 Y 345.7195

G01 Z -76.0000 F 1500.0000(Penetrate)
G03 X -78.5111 Y 345.2446 Z -76.0000 I 1.1417 J -0.0000 F 1500.0000
G03 X -78.0235 Y 344.9315 Z -76.0000 I 0.4876 J 0.2230
G03 X -77.6177 Y 345.1167 Z -76.0000 I -0.0000 J 0.5371
G03 X -77.4571 Y 345.5471 Z -76.0000 I -0.4964 J 0.4304
G03 X -77.6541 Y 345.9411 Z -76.0000 I -0.4925 J 0.0000
G02 X -78.0482 Y 346.7292 Z -76.0000 I 0.5910 J 0.7880
G02 X -77.7548 Y 347.9907 Z -76.0000 I 2.8591 J 0.0000
G02 X -76.1027 Y 349.0194 Z -76.0000 I 1.6521 J -0.8123
G02 X -75.4082 Y 348.7738 Z -76.0000 I -0.0000 J -1.1046
G02 X -74.9945 Y 348.1575 Z -76.0000 I -0.7903 J -0.9775
G03 X -75.2760 Y 347.5791 Z -76.0000 I 1.9869 J -1.3247
G03 X -75.3885 Y 346.8769 Z -76.0000 I 2.1344 J -0.7022
G03 X -75.3250 Y 346.6677 Z -76.0000 I 0.3767 J 0.0000
G03 X -75.1176 Y 346.5568 Z -76.0000 I 0.2074 J 0.1386
G03 X -74.4840 Y 347.2157 Z -76.0000 I 0.0000 J 0.6341
G02 X -74.5020 Y 348.1329 Z -76.0000 I 23.3997 J 0.9171
G02 X -73.9515 Y 348.6805 Z -76.0000 I 2.1571 J -1.6178
G02 X -72.9259 Y 349.0194 Z -76.0000 I 1.0257 J -1.3824
G02 X -72.2419 Y 348.6856 Z -76.0000 I -0.0000 J -0.8676
G02 X -71.9162 Y 347.7389 Z -76.0000 I -1.2132 J -0.9467
G02 X -72.8929 Y 345.5250 Z -76.0000 I -2.9974 J -0.0000
G03 X -73.0244 Y 345.2270 Z -76.0000 I 0.2720 J -0.2980
G03 X -72.9621 Y 345.0553 Z -76.0000 I 0.2679 J 0.0000
G03 X -72.8027 Y 344.9807 Z -76.0000 I 0.1594 J 0.1331
G03 X -72.6783 Y 345.0165 Z -76.0000 I 0.0000 J 0.2344
G03 X -72.5565 Y 345.1285 Z -76.0000 I -0.2405 J 0.3839
G03 X -72.3429 Y 345.4200 Z -76.0000 I -1.7990 J 1.5421
G03 X -72.1378 Y 345.7688 Z -76.0000 I -7.0301 J 4.3683
G03 X -71.6529 Y 346.8891 Z -76.0000 I -4.1624 J 2.4666
G03 X -71.4729 Y 348.1575 Z -76.0000 I -4.3785 J 1.2684
G03 X -71.7736 Y 349.2745 Z -76.0000 I -2.2254 J -0.0000
G03 X -72.8274 Y 349.8814 Z -76.0000 I -1.0538 J -0.6116
G03 X -73.8536 Y 349.5700 Z -76.0000 I -0.0000 J -1.8472
G03 X -74.6005 Y 348.8224 Z -76.0000 I 1.5007 J -2.2460
G03 X -75.1297 Y 349.5772 Z -76.0000 I -1.5303 J -0.5101
G03 X -76.0042 Y 349.8814 Z -76.0000 I -0.8744 J -1.1049
G03 X -78.4673 Y 347.7511 Z -76.0000 I -0.0000 J -2.4892
G03 X -78.6146 Y 345.7195 Z -76.0000 I 13.9416 J -2.0316
G01 X -78.6146 Y 345.7195 Z -76.0000
G00 Z -55.0000

(Change tool to Default tool)

G00 Z -55.0000
G00 X -78.6146 Y 345.7195

G00 Z -55.0000

(End cutting path id: path103)


(Start cutting path id: path49)
(Change tool to Default tool)

G00 Z -55.0000
G00 X -84.0377 Y 345.1149

G01 Z -76.0000 F 1500.0000(Penetrate)
G01 X -83.6929 Y 345.1149 Z -76.0000 F 1500.0000
G02 X -83.6678 Y 345.5265 Z -76.0000 I 3.3870 J 0.0000
G02 X -83.4713 Y 345.8290 Z -76.0000 I 0.4080 J -0.0500
G02 X -83.1989 Y 345.9193 Z -76.0000 I 0.2261 J -0.2264
G03 X -82.6340 Y 345.8782 Z -76.0000 I 0.5649 J 3.8665
G01 X -81.1071 Y 345.8782 Z -76.0000
G03 X -81.9243 Y 345.2756 Z -76.0000 I 19.4215 J -27.1904
G02 X -82.6586 Y 344.7454 Z -76.0000 I -10.8479 J 14.2509
G03 X -83.6086 Y 343.9735 Z -76.0000 I 4.4243 J -6.4154
G03 X -84.0377 Y 342.9724 Z -76.0000 I 0.9534 J -1.0012
G03 X -83.4304 Y 341.8538 Z -76.0000 I 1.3338 J 0.0000
G03 X -81.9691 Y 341.4209 Z -76.0000 I 1.4613 J 2.2500
G03 X -80.5813 Y 341.8827 Z -76.0000 I 0.0000 J 2.3160
G03 X -80.1221 Y 342.8000 Z -76.0000 I -0.6865 J 0.9173
G03 X -80.4052 Y 343.2298 Z -76.0000 I -0.4679 J 0.0000
G03 X -80.5900 Y 343.2679 Z -76.0000 I -0.1848 J -0.4299
G03 X -80.8482 Y 343.1790 Z -76.0000 I 0.0000 J -0.4198
G03 X -81.0333 Y 342.8000 Z -76.0000 I 0.2958 J -0.3790
G03 X -80.8927 Y 342.4761 Z -76.0000 I 0.4433 J 0.0000
G03 X -80.5900 Y 342.3567 Z -76.0000 I 0.3027 J 0.3238
G02 X -81.0519 Y 341.9355 Z -76.0000 I -0.9341 J 0.5605
G02 X -81.7967 Y 341.7657 Z -76.0000 I -0.7447 J 1.5484
G02 X -82.7701 Y 342.0974 Z -76.0000 I -0.0000 J 1.5943
G02 X -83.2004 Y 342.9724 Z -76.0000 I 0.6746 J 0.8750
G02 X -82.9088 Y 343.8420 Z -76.0000 I 1.4428 J 0.0000
G02 X -82.1414 Y 344.6469 Z -76.0000 I 3.8821 J -2.9327
G01 X -80.2206 Y 346.2723 Z -76.0000
G02 X -80.1410 Y 346.3507 Z -76.0000 I 5.2897 J -5.2883
G03 X -80.1221 Y 346.3954 Z -76.0000 I -0.0434 J 0.0447
G01 X -80.1221 Y 346.6417 Z -76.0000
G01 X -83.7668 Y 346.6417 Z -76.0000
G01 X -84.0377 Y 345.1149 Z -76.0000
G00 Z -55.0000

(Change tool to Default tool)

G00 Z -55.0000
G00 X -84.0377 Y 345.1149

G00 Z -55.0000

(End cutting path id: path49)


(Start cutting path id: path50)
(Change tool to Default tool)

G00 Z -55.0000
G00 X -80.5407 Y 352.1590

G01 Z -76.0000 F 1500.0000(Penetrate)
G03 X -80.4241 Y 352.6633 Z -76.0000 I -14.1492 J 3.5371 F 1500.0000
G03 X -80.4176 Y 352.7254 Z -76.0000 I -0.2921 J 0.0621
G03 X -80.5158 Y 352.9454 Z -76.0000 I -0.2955 J 0.0000
G03 X -80.7131 Y 353.0209 Z -76.0000 I -0.1973 J -0.2200
G03 X -80.8564 Y 352.9844 Z -76.0000 I 0.0000 J -0.2992
G03 X -81.0825 Y 352.7500 Z -76.0000 I 0.2607 J -0.4778
G02 X -81.0993 Y 352.6283 Z -76.0000 I -0.4507 J 0.0000
G03 X -81.2303 Y 352.1344 Z -76.0000 I 17.1961 J -4.8253
G03 X -81.4982 Y 351.0510 Z -76.0000 I 67.8551 J -17.3583
G03 X -81.5012 Y 351.0262 Z -76.0000 I 0.1038 J -0.0248
G03 X -81.7332 Y 350.6021 Z -76.0000 I 3.5467 J -2.2167
G02 X -83.1265 Y 349.7210 Z -76.0000 I -1.3932 J 0.6609
G02 X -83.5360 Y 349.8961 Z -76.0000 I 0.0000 J 0.5664
G02 X -83.6929 Y 350.2874 Z -76.0000 I 0.4095 J 0.3913
G02 X -83.5249 Y 351.1224 Z -76.0000 I 2.1593 J 0.0000
G03 X -83.1757 Y 351.9866 Z -76.0000 I -32.8554 J 13.7772
G03 X -83.1223 Y 352.1334 Z -76.0000 I -0.6116 J 0.3058
G03 X -83.1019 Y 352.3068 Z -76.0000 I -0.7250 J 0.1734
G03 X -83.3455 Y 352.8074 Z -76.0000 I -0.6362 J 0.0000
G03 X -83.9638 Y 353.0209 Z -76.0000 I -0.6183 J -0.7884
G03 X -85.1485 Y 352.1922 Z -76.0000 I 0.0000 J -1.2612
G03 X -85.2197 Y 351.7896 Z -76.0000 I 1.1028 J -0.4026
G03 X -85.1212 Y 351.6911 Z -76.0000 I 0.0985 J 0.0000
G02 X -85.0720 Y 351.6911 Z -76.0000 I 0.0492 J -2274.3549
G03 X -84.9513 Y 351.7407 Z -76.0000 I -0.0000 J 0.1716
G03 X -84.8750 Y 351.8635 Z -76.0000 I -0.2187 J 0.2211
G02 X -84.4879 Y 352.5312 Z -76.0000 I 1.6900 J -0.5337
G02 X -83.9884 Y 352.7500 Z -76.0000 I 0.4994 J -0.4605
G02 X -83.8088 Y 352.6588 Z -76.0000 I -0.0000 J -0.2224
G02 X -83.7421 Y 352.4545 Z -76.0000 I -0.2798 J -0.2043
G02 X -83.7794 Y 352.2496 Z -76.0000 I -0.5826 J -0.0000
G02 X -83.8653 Y 352.0359 Z -76.0000 I -4.7464 J 1.7837
G02 X -84.1574 Y 351.3304 Z -76.0000 I -13.9959 J 5.3831
G03 X -84.3578 Y 350.3859 Z -76.0000 I 2.1259 J -0.9445
G03 X -84.0585 Y 349.7611 Z -76.0000 I 0.8019 J 0.0000
G03 X -83.1757 Y 349.4501 Z -76.0000 I 0.8828 J 1.0975
G03 X -82.1802 Y 349.7738 Z -76.0000 I 0.0000 J 1.6929
G03 X -81.6982 Y 350.2382 Z -76.0000 I -1.4297 J 1.9665
G03 X -81.1882 Y 349.5315 Z -76.0000 I 0.7848 J 0.0291
G03 X -80.7377 Y 349.4501 Z -76.0000 I 0.4505 J 1.2056
G03 X -80.0479 Y 349.8324 Z -76.0000 I 0.0000 J 0.8135
G03 X -79.7281 Y 350.6568 Z -76.0000 I -2.0010 J 1.2506
G03 X -79.8234 Y 350.7725 Z -76.0000 I -0.1179 J 0.0000
G03 X -79.9004 Y 350.7799 Z -76.0000 I -0.0770 J -0.3959
G03 X -80.0188 Y 350.7296 Z -76.0000 I -0.0000 J -0.1644
G03 X -80.0728 Y 350.6322 Z -76.0000 I 0.1553 J -0.1498
G02 X -80.3332 Y 349.9529 Z -76.0000 I -3.2421 J 0.8532
G02 X -80.7131 Y 349.7210 Z -76.0000 I -0.3799 J 0.1953
G02 X -80.9783 Y 349.8904 Z -76.0000 I 0.0000 J 0.2923
G02 X -81.0333 Y 350.1397 Z -76.0000 I 0.5379 J 0.2493
G02 X -81.0030 Y 350.3287 Z -76.0000 I 0.6048 J 0.0000
G03 X -80.9101 Y 350.7553 Z -76.0000 I -2.0048 J 0.6596
G03 X -80.7973 Y 351.1279 Z -76.0000 I -2.8201 J 1.0575
G03 X -80.7377 Y 351.4448 Z -76.0000 I -3.5889 J 0.8382
G01 X -80.5407 Y 352.1590 Z -76.0000
G00 Z -55.0000

(Change tool to Default tool)

G00 Z -55.0000
G00 X -80.5407 Y 352.1590

G00 Z -55.0000

(End cutting path id: path50)


(Start cutting path id: path93)
(Change tool to Default tool)

G00 Z -55.0000
G00 X -36.8184 Y 350.5463

G01 Z -76.0000 F 1500.0000(Penetrate)
G02 X -37.0096 Y 350.6146 Z -76.0000 I 1.4578 J 4.3792 F 1500.0000
G03 X -37.2617 Y 350.6940 Z -76.0000 I -0.7846 J -2.0512
G02 X -37.8165 Y 350.9666 Z -76.0000 I 0.9819 J 2.7002
G02 X -37.9512 Y 351.2112 Z -76.0000 I 0.1549 J 0.2446
G02 X -37.8961 Y 351.4375 Z -76.0000 I 0.4925 J -0.0000
G02 X -37.4587 Y 351.7037 Z -76.0000 I 0.4374 J -0.2264
G02 X -37.1916 Y 351.6839 Z -76.0000 I -0.0000 J -1.8070
G02 X -36.3751 Y 351.4082 Z -76.0000 I -0.3611 J -2.4166
G03 X -36.2788 Y 351.3403 Z -76.0000 I 0.2441 J 0.2441
G03 X -36.2520 Y 351.3343 Z -76.0000 I 0.0268 J 0.0566
G03 X -36.1535 Y 351.3652 Z -76.0000 I 0.0000 J 0.1724
G03 X -36.0796 Y 351.5067 Z -76.0000 I -0.0984 J 0.1415
G03 X -36.2700 Y 351.7903 Z -76.0000 I -0.3064 J 0.0000
G03 X -37.4587 Y 352.0238 Z -76.0000 I -1.1886 J -2.9079
G03 X -38.4032 Y 351.5443 Z -76.0000 I 0.0000 J -1.1701
G03 X -38.6407 Y 350.8171 Z -76.0000 I 0.9946 J -0.7272
G03 X -38.4602 Y 350.3008 Z -76.0000 I 0.8286 J -0.0000
G03 X -38.1975 Y 350.0784 Z -76.0000 I 0.6931 J 0.5522
G03 X -37.4784 Y 349.8053 Z -76.0000 I 1.7056 J 3.4078
G02 X -36.5967 Y 349.5119 Z -76.0000 I -2.0298 J -7.5730
G02 X -35.3008 Y 348.9183 Z -76.0000 I -2.5032 J -7.1760
G02 X -34.9468 Y 348.3053 Z -76.0000 I -0.3538 J -0.6130
G02 X -35.1018 Y 347.7062 Z -76.0000 I -1.2352 J -0.0000
G02 X -36.2766 Y 346.5568 Z -76.0000 I -2.5134 J 1.3938
G03 X -37.0813 Y 346.7210 Z -76.0000 I -0.9397 J -2.5504
G03 X -37.4094 Y 346.7292 Z -76.0000 I -0.3281 J -6.6013
G03 X -38.1493 Y 346.7168 Z -76.0000 I 0.0000 J -22.1573
G03 X -38.5422 Y 346.3105 Z -76.0000 I 0.0136 J -0.4063
G03 X -38.2351 Y 345.9856 Z -76.0000 I 0.3255 J 0.0000
G03 X -37.5325 Y 345.9658 Z -76.0000 I 0.7026 J 12.4441
G03 X -37.1695 Y 345.9791 Z -76.0000 I 0.0000 J 4.9437
G03 X -36.4982 Y 346.1135 Z -76.0000 I -0.2030 J 2.7571
G02 X -36.1832 Y 345.6579 Z -76.0000 I -0.5247 J -0.6996
G02 X -36.1288 Y 345.2762 Z -76.0000 I -1.3138 J -0.3816
G02 X -36.3912 Y 344.3752 Z -76.0000 I -1.6786 J 0.0000
G02 X -37.4094 Y 343.4785 Z -76.0000 I -2.0557 J 1.3079
G03 X -37.8329 Y 343.7350 Z -76.0000 I -0.5844 J -0.4870
G03 X -38.1975 Y 343.7740 Z -76.0000 I -0.3646 J -1.6841
G03 X -38.8717 Y 343.7698 Z -76.0000 I -0.0000 J -54.2185
G03 X -39.2810 Y 343.3554 Z -76.0000 I 0.0052 J -0.4145
G03 X -38.9739 Y 343.0304 Z -76.0000 I 0.3255 J 0.0000
G03 X -38.2713 Y 343.0106 Z -76.0000 I 0.7026 J 12.4441
G03 X -38.0094 Y 343.0149 Z -76.0000 I -0.0000 J 7.9438
G03 X -37.5572 Y 343.0599 Z -76.0000 I -0.1133 J 3.4350
G02 X -37.5195 Y 342.8792 Z -76.0000 I -2.2640 J -0.5666
G02 X -37.5079 Y 342.7397 Z -76.0000 I -0.8319 J -0.1395
G02 X -37.5236 Y 342.5359 Z -76.0000 I -1.3270 J 0.0000
G02 X -37.5572 Y 342.3703 Z -76.0000 I -1.8252 J 0.2837
G02 X -37.5695 Y 342.3211 Z -76.0000 I -0.1047 J 0.0000
G03 X -37.5818 Y 342.2718 Z -76.0000 I 0.0925 J -0.0493
G03 X -37.5430 Y 342.1629 Z -76.0000 I 0.1724 J -0.0000
G03 X -37.4094 Y 342.0995 Z -76.0000 I 0.1336 J 0.1090
G03 X -37.1469 Y 342.3502 Z -76.0000 I 0.0000 J 0.2628
G03 X -37.1385 Y 342.7151 Z -76.0000 I -7.9504 J 0.3649
G02 X -37.1380 Y 342.8178 Z -76.0000 I 10.8130 J -0.0000
G03 X -37.1878 Y 343.1338 Z -76.0000 I -0.9693 J 0.0092
G03 X -35.4713 Y 344.3009 Z -76.0000 I -0.8716 J 3.1276
G03 X -35.1684 Y 345.2024 Z -76.0000 I -1.1901 J 0.9015
G03 X -35.3158 Y 345.7980 Z -76.0000 I -1.2774 J 0.0000
G03 X -35.8826 Y 346.3845 Z -76.0000 I -1.2906 J -0.6803
G03 X -34.4391 Y 347.9520 Z -76.0000 I -1.8029 J 3.1085
G03 X -34.2819 Y 348.6501 Z -76.0000 I -1.4706 J 0.6980
G03 X -35.0894 Y 349.9095 Z -76.0000 I -1.3858 J 0.0000
G03 X -35.6856 Y 350.1523 Z -76.0000 I -3.0722 J -6.6900
G01 X -36.8184 Y 350.5463 Z -76.0000
G00 Z -55.0000

(Change tool to Default tool)

G00 Z -55.0000
G00 X -38.8624 Y 343.3800

G01 Z -76.0000 F 1500.0000(Penetrate)
G02 X -38.7400 Y 343.4061 Z -76.0000 I 0.4393 J -1.7591 F 1500.0000
G02 X -38.1975 Y 343.4539 Z -76.0000 I 0.5425 J -3.0558
G02 X -37.9651 Y 343.4417 Z -76.0000 I -0.0000 J -2.2133
G02 X -37.7542 Y 343.3800 Z -76.0000 I -0.0647 J -0.6127
G02 X -37.9995 Y 343.3407 Z -76.0000 I -0.3507 J 1.4044
G02 X -38.2713 Y 343.3308 Z -76.0000 I -0.2718 J 3.7230
G02 X -38.6628 Y 343.3448 Z -76.0000 I -0.0000 J 5.4901
G02 X -38.8624 Y 343.3800 Z -76.0000 I 0.0701 J 0.9800
G01 X -38.8624 Y 343.3800 Z -76.0000
G00 Z -55.0000

(Change tool to Default tool)

G00 Z -55.0000
G00 X -38.0990 Y 346.3352

G01 Z -76.0000 F 1500.0000(Penetrate)
G02 X -37.9053 Y 346.3793 Z -76.0000 I 0.3214 J -0.9632 F 1500.0000
G02 X -37.4340 Y 346.4091 Z -76.0000 I 0.4713 J -3.7157
G02 X -37.1677 Y 346.3975 Z -76.0000 I 0.0000 J -3.0821
G02 X -36.8923 Y 346.3352 Z -76.0000 I -0.0899 J -1.0362
G02 X -37.2426 Y 346.2950 Z -76.0000 I -0.5674 J 3.4012
G02 X -37.5325 Y 346.2859 Z -76.0000 I -0.2899 J 4.5967
G02 X -37.8910 Y 346.3007 Z -76.0000 I 0.0000 J 4.3275
G02 X -38.0990 Y 346.3352 Z -76.0000 I 0.1077 J 1.2959
G01 X -38.0990 Y 346.3352 Z -76.0000
G00 Z -55.0000

(Change tool to Default tool)

G00 Z -55.0000
G00 X -38.0990 Y 346.3352

G00 Z -55.0000

(End cutting path id: path93)


(Start cutting path id: path91)
(Change tool to Default tool)

G00 Z -55.0000
G00 X -33.1209 Y 347.7881

G01 Z -76.0000 F 1500.0000(Penetrate)
G01 X -32.7515 Y 347.7881 Z -76.0000 F 1500.0000
G02 X -32.6769 Y 348.4202 Z -76.0000 I 17.6207 J -1.7602
G02 X -32.4560 Y 348.7732 Z -76.0000 I 0.5018 J -0.0684
G02 X -32.0867 Y 348.8968 Z -76.0000 I 0.3088 J -0.3088
G03 X -31.3724 Y 348.8471 Z -76.0000 I 0.7143 J 5.1002
G01 X -29.3531 Y 348.8471 Z -76.0000
G02 X -30.7722 Y 347.6351 Z -76.0000 I -58.5886 J 67.1626
G02 X -31.5448 Y 347.0001 Z -76.0000 I -37.8091 J 45.2197
G03 X -32.6291 Y 345.9616 Z -76.0000 I 4.8214 J -6.1194
G03 X -33.1209 Y 344.6360 Z -76.0000 I 1.5408 J -1.3256
G03 X -32.3642 Y 343.1044 Z -76.0000 I 1.9282 J -0.0000
G03 X -30.5598 Y 342.4935 Z -76.0000 I 1.8044 J 2.3591
G03 X -28.8158 Y 343.1903 Z -76.0000 I 0.0000 J 2.5308
G03 X -28.2695 Y 344.4636 Z -76.0000 I -1.2108 J 1.2733
G03 X -28.6715 Y 345.0448 Z -76.0000 I -0.6211 J 0.0000
G03 X -28.8605 Y 345.0792 Z -76.0000 I -0.1890 J -0.5013
G03 X -29.1924 Y 344.9659 Z -76.0000 I 0.0000 J -0.5427
G03 X -29.4269 Y 344.4882 Z -76.0000 I 0.3693 J -0.4777
G03 X -29.3616 Y 344.2358 Z -76.0000 I 0.5205 J -0.0000
G03 X -28.7867 Y 343.8972 Z -76.0000 I 0.5750 J 0.3189
G02 X -29.6327 Y 343.0504 Z -76.0000 I -1.5453 J 0.6979
G02 X -30.3874 Y 342.8875 Z -76.0000 I -0.7547 J 1.6670
G02 X -31.6692 Y 343.5074 Z -76.0000 I 0.0000 J 1.6351
G02 X -32.0620 Y 344.6360 Z -76.0000 I 1.4249 J 1.1286
G02 X -31.5772 Y 346.0601 Z -76.0000 I 2.3340 J 0.0000
G02 X -31.0277 Y 346.7292 Z -76.0000 I 10.9623 J -8.4421
G01 X -28.3926 Y 349.3642 Z -76.0000
G03 X -28.3093 Y 349.4904 Z -76.0000 I -0.1535 J 0.1919
G03 X -28.2695 Y 349.7829 Z -76.0000 I -1.0537 J 0.2924
G01 X -32.8008 Y 349.7829 Z -76.0000
G01 X -33.1209 Y 347.7881 Z -76.0000
G00 Z -55.0000

(Change tool to Default tool)

G00 Z -55.0000
G00 X -33.1209 Y 347.7881

G00 Z -55.0000

(End cutting path id: path91)


(Start cutting path id: path90)
(Change tool to Default tool)

G00 Z -55.0000
G00 X -23.0137 Y 347.2956

G01 Z -76.0000 F 1500.0000(Penetrate)
G01 X -26.3875 Y 347.2956 Z -76.0000 F 1500.0000
G03 X -26.6036 Y 347.2716 Z -76.0000 I -0.0000 J -0.9861
G03 X -26.7815 Y 347.0493 Z -76.0000 I 0.0499 J -0.2223
G03 X -26.5868 Y 346.7843 Z -76.0000 I 0.2777 J 0.0000
G03 X -26.3875 Y 346.7538 Z -76.0000 I 0.1993 J 0.6361
G01 X -23.0137 Y 346.7538 Z -76.0000
G01 X -23.0137 Y 343.3800 Z -76.0000
G03 X -22.9979 Y 343.1824 Z -76.0000 I 1.2449 J -0.0000
G03 X -22.7674 Y 342.9860 Z -76.0000 I 0.2305 J 0.0371
G03 X -22.5239 Y 343.1727 Z -76.0000 I 0.0000 J 0.2522
G03 X -22.4965 Y 343.3800 Z -76.0000 I -0.7714 J 0.2073
G01 X -22.4965 Y 346.7538 Z -76.0000
G01 X -19.1227 Y 346.7538 Z -76.0000
G03 X -18.9031 Y 346.7775 Z -76.0000 I -0.0000 J 1.0290
G03 X -18.7041 Y 347.0247 Z -76.0000 I -0.0540 J 0.2472
G03 X -18.8864 Y 347.2638 Z -76.0000 I -0.2479 J 0.0000
G03 X -19.1227 Y 347.2956 Z -76.0000 I -0.2363 J -0.8616
G01 X -22.4965 Y 347.2956 Z -76.0000
G01 X -22.4965 Y 350.6694 Z -76.0000
G03 X -22.5167 Y 350.8986 Z -76.0000 I -1.3110 J -0.0000
G03 X -22.7428 Y 351.0880 Z -76.0000 I -0.2261 J -0.0401
G03 X -22.9899 Y 350.8890 Z -76.0000 I 0.0000 J -0.2530
G03 X -23.0137 Y 350.6694 Z -76.0000 I 1.0052 J -0.2196
G01 X -23.0137 Y 347.2956 Z -76.0000
G00 Z -55.0000

(Change tool to Default tool)

G00 Z -55.0000
G00 X -23.0137 Y 347.2956

G00 Z -55.0000

(End cutting path id: path90)


(Start cutting path id: path88)
(Change tool to Default tool)

G00 Z -55.0000
G00 X -16.4426 Y 345.1149

G01 Z -76.0000 F 1500.0000(Penetrate)
G01 X -16.0978 Y 345.1149 Z -76.0000 F 1500.0000
G02 X -16.0727 Y 345.5265 Z -76.0000 I 3.3877 J -0.0000
G02 X -15.8762 Y 345.8290 Z -76.0000 I 0.4080 J -0.0499
G02 X -15.6036 Y 345.9193 Z -76.0000 I 0.2263 J -0.2267
G03 X -15.0389 Y 345.8782 Z -76.0000 I 0.5647 J 3.8670
G01 X -13.5120 Y 345.8782 Z -76.0000
G03 X -14.3292 Y 345.2756 Z -76.0000 I 19.4205 J -27.1889
G02 X -15.0635 Y 344.7454 Z -76.0000 I -10.8472 J 14.2499
G03 X -16.0135 Y 343.9735 Z -76.0000 I 4.4242 J -6.4153
G03 X -16.4426 Y 342.9724 Z -76.0000 I 0.9534 J -1.0012
G03 X -15.8353 Y 341.8538 Z -76.0000 I 1.3338 J 0.0000
G03 X -14.3740 Y 341.4209 Z -76.0000 I 1.4613 J 2.2500
G03 X -12.9862 Y 341.8827 Z -76.0000 I -0.0000 J 2.3161
G03 X -12.5270 Y 342.8000 Z -76.0000 I -0.6865 J 0.9173
G03 X -12.8101 Y 343.2298 Z -76.0000 I -0.4679 J 0.0000
G03 X -12.9949 Y 343.2679 Z -76.0000 I -0.1848 J -0.4299
G03 X -13.2532 Y 343.1790 Z -76.0000 I -0.0000 J -0.4198
G03 X -13.4382 Y 342.8000 Z -76.0000 I 0.2958 J -0.3790
G03 X -13.2976 Y 342.4762 Z -76.0000 I 0.4433 J -0.0000
G03 X -12.9949 Y 342.3567 Z -76.0000 I 0.3027 J 0.3238
G02 X -13.4568 Y 341.9355 Z -76.0000 I -0.9341 J 0.5605
G02 X -14.2016 Y 341.7657 Z -76.0000 I -0.7447 J 1.5484
G02 X -15.1751 Y 342.0974 Z -76.0000 I -0.0000 J 1.5943
G02 X -15.6053 Y 342.9724 Z -76.0000 I 0.6746 J 0.8750
G02 X -15.3137 Y 343.8420 Z -76.0000 I 1.4428 J -0.0000
G02 X -14.5463 Y 344.6469 Z -76.0000 I 3.8821 J -2.9327
G01 X -12.6255 Y 346.2723 Z -76.0000
G02 X -12.5459 Y 346.3507 Z -76.0000 I 5.4140 J -5.4140
G03 X -12.5270 Y 346.3954 Z -76.0000 I -0.0434 J 0.0447
G01 X -12.5270 Y 346.6417 Z -76.0000
G01 X -16.1717 Y 346.6417 Z -76.0000
G01 X -16.4426 Y 345.1149 Z -76.0000
G00 Z -55.0000

(Change tool to Default tool)

G00 Z -55.0000
G00 X -16.4426 Y 345.1149

G00 Z -55.0000

(End cutting path id: path88)


(Start cutting path id: path87)
(Change tool to Default tool)

G00 Z -55.0000
G00 X -10.6134 Y 345.6456

G01 Z -76.0000 F 1500.0000(Penetrate)
G03 X -10.2597 Y 345.8642 Z -76.0000 I -0.1932 J 0.7083 F 1500.0000
G03 X -10.1455 Y 346.1628 Z -76.0000 I -0.3335 J 0.2986
G03 X -10.3138 Y 346.4726 Z -76.0000 I -0.3694 J 0.0000
G03 X -10.5149 Y 346.5322 Z -76.0000 I -0.2012 J -0.3098
G03 X -10.6857 Y 346.4919 Z -76.0000 I 0.0000 J -0.3822
G03 X -11.0567 Y 345.8919 Z -76.0000 I 0.2997 J -0.6000
G03 X -10.5677 Y 345.1405 Z -76.0000 I 0.8217 J 0.0000
G03 X -9.5791 Y 344.9315 Z -76.0000 I 0.9885 J 2.2326
G03 X -7.6747 Y 346.0732 Z -76.0000 I 0.0000 J 2.1592
G03 X -7.5598 Y 346.5322 Z -76.0000 I -0.8591 J 0.4590
G03 X -7.7505 Y 347.1261 Z -76.0000 I -1.0200 J 0.0000
G03 X -7.9538 Y 347.3448 Z -76.0000 I -0.9562 J -0.6849
G03 X -8.3074 Y 347.5343 Z -76.0000 I -0.6594 J -0.8059
G03 X -9.1851 Y 347.7389 Z -76.0000 I -1.9177 J -6.2434
G02 X -9.6363 Y 347.8382 Z -76.0000 I 2.3724 J 11.8510
G02 X -10.1209 Y 348.4530 Z -76.0000 I 0.1477 J 0.6148
G02 X -10.0609 Y 348.7505 Z -76.0000 I 0.7676 J 0.0000
G02 X -9.5545 Y 349.3396 Z -76.0000 I 1.1659 J -0.4901
G02 X -8.6744 Y 349.5823 Z -76.0000 I 0.9403 J -1.6925
G02 X -8.4463 Y 349.5858 Z -76.0000 I 0.2281 J -7.3356
G02 X -7.7156 Y 349.5072 Z -76.0000 I -0.0000 J -3.4348
G02 X -7.1165 Y 349.1179 Z -76.0000 I -0.2147 J -0.9860
G03 X -7.5811 Y 348.8807 Z -76.0000 I 0.1037 J -0.7767
G03 X -7.7321 Y 348.5023 Z -76.0000 I 0.3987 J -0.3784
G03 X -7.5879 Y 348.1861 Z -76.0000 I 0.4187 J -0.0000
G03 X -7.3135 Y 348.0836 Z -76.0000 I 0.2744 J 0.3162
G03 X -6.9156 Y 348.2460 Z -76.0000 I 0.0000 J 0.5688
G03 X -6.6732 Y 348.8224 Z -76.0000 I -0.5643 J 0.5764
G03 X -7.0669 Y 349.5116 Z -76.0000 I -0.8001 J 0.0000
G03 X -8.4217 Y 349.8814 Z -76.0000 I -1.3548 J -2.2972
G03 X -10.6745 Y 348.6390 Z -76.0000 I 0.0000 J -2.6637
G03 X -10.8351 Y 348.0836 Z -76.0000 I 0.8802 J -0.5553
G03 X -10.0118 Y 346.9718 Z -76.0000 I 1.1624 J 0.0000
G03 X -9.3082 Y 346.8031 Z -76.0000 I 1.7398 J 5.7041
G03 X -9.0562 Y 346.7514 Z -76.0000 I 0.7302 J 2.9236
G02 X -8.8650 Y 346.7046 Z -76.0000 I -0.1929 J -1.2005
G02 X -8.3946 Y 346.4555 Z -76.0000 I -0.1651 J -0.8804
G02 X -8.2739 Y 346.1628 Z -76.0000 I -0.2946 J -0.2927
G02 X -8.3832 Y 345.7942 Z -76.0000 I -0.6761 J 0.0000
G02 X -8.7172 Y 345.4486 Z -76.0000 I -1.0570 J 0.6874
G02 X -9.2499 Y 345.2708 Z -76.0000 I -0.6921 J 1.1865
G02 X -9.5791 Y 345.2516 Z -76.0000 I -0.3292 J 2.8172
G02 X -9.9837 Y 345.2703 Z -76.0000 I 0.0000 J 4.3926
G02 X -10.6134 Y 345.6456 Z -76.0000 I 0.0784 J 0.8474
G01 X -10.6134 Y 345.6456 Z -76.0000
G00 Z -55.0000

(Change tool to Default tool)

G00 Z -55.0000
G00 X -10.6134 Y 345.6456

G00 Z -55.0000

(End cutting path id: path87)


(Start cutting path id: path86)
(Change tool to Default tool)

G00 Z -55.0000
G00 X -5.8846 Y 340.4442

G01 Z -76.0000 F 1500.0000(Penetrate)
G01 X -86.7143 Y 340.4442 Z -76.0000 F 1500.0000
G00 Z -55.0000

(End cutting path id: path86)


(Start cutting path id: path76-5)
(Change tool to Default tool)

G00 Z -55.0000
G00 X 1.7827 Y 339.2205

G01 Z -76.0000 F 1500.0000(Penetrate)
G03 X 1.4423 Y 339.1803 Z -76.0000 I -0.0000 J -1.4613 F 1500.0000
G03 X 1.2409 Y 338.9250 Z -76.0000 I 0.0612 J -0.2553
G03 X 1.4556 Y 338.6449 Z -76.0000 I 0.2901 J 0.0000
G03 X 1.7581 Y 338.6049 Z -76.0000 I 0.3025 J 1.1231
G01 X 11.1653 Y 338.6049 Z -76.0000
G03 X 11.4678 Y 338.6449 Z -76.0000 I 0.0000 J 1.1632
G03 X 11.6825 Y 338.9250 Z -76.0000 I -0.0754 J 0.2801
G03 X 11.4773 Y 339.1842 Z -76.0000 I -0.2663 J 0.0000
G03 X 11.1653 Y 339.2205 Z -76.0000 I -0.3120 J -1.3223
G01 X 1.7827 Y 339.2205 Z -76.0000
G00 Z -55.0000

(Change tool to Default tool)

G00 Z -55.0000
G00 X 1.7581 Y 342.2742

G01 Z -76.0000 F 1500.0000(Penetrate)
G03 X 1.4556 Y 342.2342 Z -76.0000 I 0.0000 J -1.1631 F 1500.0000
G03 X 1.2410 Y 341.9540 Z -76.0000 I 0.0755 J -0.2801
G03 X 1.4423 Y 341.6987 Z -76.0000 I 0.2625 J 0.0000
G03 X 1.7827 Y 341.6585 Z -76.0000 I 0.3404 J 1.4212
G01 X 11.1654 Y 341.6585 Z -76.0000
G03 X 11.4774 Y 341.6948 Z -76.0000 I -0.0000 J 1.3587
G03 X 11.6825 Y 341.9540 Z -76.0000 I -0.0612 J 0.2592
G03 X 11.4679 Y 342.2342 Z -76.0000 I -0.2901 J 0.0000
G03 X 11.1654 Y 342.2742 Z -76.0000 I -0.3025 J -1.1231
G01 X 1.7581 Y 342.2742 Z -76.0000
G00 Z -55.0000

(Change tool to Default tool)

G00 Z -55.0000
G00 X 1.7581 Y 342.2742

G00 Z -55.0000

(End cutting path id: path76-5)


(Start cutting path id: path74)
(Change tool to Default tool)

G00 Z -55.0000
G00 X 18.5095 Y 340.4272

G01 Z -76.0000 F 1500.0000(Penetrate)
G03 X 18.6415 Y 338.5208 Z -76.0000 I 13.8295 J -0.0000 F 1500.0000
G03 X 19.5438 Y 335.5266 Z -76.0000 I 10.0707 J 1.4016
G03 X 21.7568 Y 332.6550 Z -76.0000 I 8.0733 J 3.9331
G03 X 21.9818 Y 332.5714 Z -76.0000 I 0.2250 J 0.2612
G03 X 22.1037 Y 332.6219 Z -76.0000 I 0.0000 J 0.1724
G03 X 22.1542 Y 332.7438 Z -76.0000 I -0.1219 J 0.1219
G03 X 22.1390 Y 332.7893 Z -76.0000 I -0.0761 J 0.0000
G03 X 21.8586 Y 333.1132 Z -76.0000 I -2.3895 J -1.7854
G02 X 20.2009 Y 335.7658 Z -76.0000 I 4.9173 J 4.9173
G02 X 19.4206 Y 340.4272 Z -76.0000 I 13.5332 J 4.6615
G02 X 19.9451 Y 344.3998 Z -76.0000 I 15.3076 J 0.0000
G02 X 21.9325 Y 347.8644 Z -76.0000 I 7.5506 J -2.0290
G03 X 22.1389 Y 348.0893 Z -76.0000 I -0.9983 J 1.1231
G03 X 22.1542 Y 348.1353 Z -76.0000 I -0.0616 J 0.0459
G03 X 22.1037 Y 348.2572 Z -76.0000 I -0.1724 J 0.0000
G03 X 21.9818 Y 348.3076 Z -76.0000 I -0.1219 J -0.1219
G03 X 21.7539 Y 348.2236 Z -76.0000 I 0.0000 J -0.3511
G03 X 19.4945 Y 345.2294 Z -76.0000 I 5.6311 J -6.5986
G03 X 18.6579 Y 342.4583 Z -76.0000 I 8.9186 J -4.2045
G03 X 18.5095 Y 340.4272 Z -76.0000 I 13.8226 J -2.0311
G01 X 18.5095 Y 340.4272 Z -76.0000
G00 Z -55.0000

(Change tool to Default tool)

G00 Z -55.0000
G00 X 18.5095 Y 340.4272

G00 Z -55.0000

(End cutting path id: path74)


(Start cutting path id: path72)
(Change tool to Default tool)

G00 Z -55.0000
G00 X 24.2691 Y 338.4817

G01 Z -76.0000 F 1500.0000(Penetrate)
G03 X 24.8214 Y 338.7352 Z -76.0000 I -0.0491 J 0.8356 F 1500.0000
G03 X 25.0078 Y 339.1959 Z -76.0000 I -0.4760 J 0.4607
G03 X 24.9102 Y 339.4741 Z -76.0000 I -0.4451 J -0.0000
G03 X 24.5153 Y 339.6638 Z -76.0000 I -0.3949 J -0.3161
G03 X 24.1064 Y 339.4981 Z -76.0000 I 0.0000 J -0.5876
G03 X 23.8012 Y 338.7773 Z -76.0000 I 0.6987 J -0.7209
G03 X 24.1841 Y 337.9608 Z -76.0000 I 1.0618 J -0.0000
G03 X 25.6728 Y 337.4228 Z -76.0000 I 1.4886 J 1.7905
G03 X 28.0580 Y 338.7500 Z -76.0000 I -0.0000 J 2.8069
G03 X 28.3324 Y 339.7131 Z -76.0000 I -1.5524 J 0.9630
G03 X 27.4281 Y 341.0467 Z -76.0000 I -1.4356 J -0.0000
G03 X 26.7071 Y 341.2645 Z -76.0000 I -1.6262 J -4.0817
G02 X 25.6231 Y 341.6248 Z -76.0000 I 1.0617 J 5.0051
G02 X 25.0817 Y 342.4712 Z -76.0000 I 0.3910 J 0.8464
G02 X 25.2291 Y 343.0060 Z -76.0000 I 1.0440 J -0.0000
G02 X 27.3227 Y 344.1950 Z -76.0000 I 2.0936 J -1.2486
G03 X 27.7839 Y 344.2017 Z -76.0000 I -0.0000 J 15.9979
G02 X 29.1204 Y 343.3578 Z -76.0000 I 0.0408 J -1.4156
G03 X 28.3412 Y 343.0842 Z -76.0000 I -0.1115 J -0.9290
G03 X 28.1108 Y 342.5205 Z -76.0000 I 0.5743 J -0.5637
G03 X 28.2997 Y 342.1220 Z -76.0000 I 0.5145 J 0.0000
G03 X 28.7018 Y 341.9787 Z -76.0000 I 0.4021 J 0.4921
G03 X 29.2150 Y 342.1754 Z -76.0000 I -0.0000 J 0.7677
G03 X 29.5883 Y 343.0130 Z -76.0000 I -0.7528 J 0.8376
G03 X 29.0701 Y 344.0019 Z -76.0000 I -1.2026 J 0.0000
G03 X 27.3473 Y 344.5398 Z -76.0000 I -1.7227 J -2.4895
G03 X 24.4477 Y 342.9141 Z -76.0000 I -0.0000 J -3.3987
G03 X 24.1706 Y 341.9294 Z -76.0000 I 1.6104 J -0.9847
G03 X 24.4018 Y 341.1068 Z -76.0000 I 1.5788 J -0.0000
G03 X 24.6631 Y 340.7966 Z -76.0000 I 1.1435 J 0.6981
G03 X 25.3314 Y 340.3666 Z -76.0000 I 1.2046 J 1.1377
G03 X 26.2392 Y 340.1317 Z -76.0000 I 1.9870 J 5.8082
G02 X 26.9825 Y 339.8737 Z -76.0000 I -0.6979 J -3.2103
G02 X 27.4212 Y 339.1713 Z -76.0000 I -0.3429 J -0.7024
G02 X 27.2385 Y 338.5872 Z -76.0000 I -1.0250 J -0.0000
G02 X 25.6728 Y 337.7676 Z -76.0000 I -1.5658 J 1.0858
G02 X 24.9964 Y 337.8446 Z -76.0000 I -0.0000 J 3.0087
G02 X 24.2691 Y 338.4817 Z -76.0000 I 0.2298 J 0.9961
G01 X 24.2691 Y 338.4817 Z -76.0000
G00 Z -55.0000

(Change tool to Default tool)

G00 Z -55.0000
G00 X 24.2691 Y 338.4817

G00 Z -55.0000

(End cutting path id: path72)


(Start cutting path id: path70)
(Change tool to Default tool)

G00 Z -55.0000
G00 X 31.3106 Y 348.1353

G01 Z -76.0000 F 1500.0000(Penetrate)
G03 X 31.3256 Y 348.0894 Z -76.0000 I 0.0778 J -0.0000 F 1500.0000
G03 X 31.5815 Y 347.7905 Z -76.0000 I 2.0570 J 1.5023
G02 X 33.6052 Y 344.1470 Z -76.0000 I -5.5172 J -5.4482
G02 X 34.0441 Y 340.4272 Z -76.0000 I -15.5431 J -3.7198
G02 X 33.5012 Y 336.4342 Z -76.0000 I -14.9557 J 0.0000
G02 X 31.5076 Y 333.0147 Z -76.0000 I -7.4875 J 2.0744
G03 X 31.3248 Y 332.7909 Z -76.0000 I 1.0194 J -1.0194
G03 X 31.3106 Y 332.7438 Z -76.0000 I 0.0711 J -0.0471
G03 X 31.3599 Y 332.6153 Z -76.0000 I 0.1921 J -0.0000
G03 X 31.4584 Y 332.5714 Z -76.0000 I 0.0984 J 0.0886
G03 X 31.7203 Y 332.6694 Z -76.0000 I -0.0000 J 0.3990
G03 X 33.9703 Y 335.6497 Z -76.0000 I -5.9352 J 6.8202
G03 X 34.8016 Y 338.4250 Z -76.0000 I -9.5945 J 4.3860
G03 X 34.9553 Y 340.4272 Z -76.0000 I -12.9597 J 2.0022
G03 X 34.8209 Y 342.3669 Z -76.0000 I -14.0588 J -0.0000
G03 X 33.9210 Y 345.3525 Z -76.0000 I -10.0456 J -1.3994
G03 X 31.7169 Y 348.2103 Z -76.0000 I -8.4007 J -4.2003
G03 X 31.4584 Y 348.3076 Z -76.0000 I -0.2585 J -0.2945
G03 X 31.3599 Y 348.2638 Z -76.0000 I 0.0000 J -0.1324
G03 X 31.3106 Y 348.1353 Z -76.0000 I 0.1429 J -0.1285
G01 X 31.3106 Y 348.1353 Z -76.0000
G00 Z -55.0000

(Change tool to Default tool)

G00 Z -55.0000
G00 X 31.3106 Y 348.1353

G00 Z -55.0000

(End cutting path id: path70)


(Start cutting path id: path68-4)
(Change tool to Default tool)

G00 Z -55.0000
G00 X 36.9085 Y 333.4580

G01 Z -76.0000 F 1500.0000(Penetrate)
G03 X 36.9237 Y 333.3870 Z -76.0000 I 0.1724 J 0.0000 F 1500.0000
G03 X 37.0808 Y 333.2856 Z -76.0000 I 0.1571 J 0.0710
G03 X 37.1289 Y 333.3028 Z -76.0000 I 0.0000 J 0.0756
G03 X 37.3271 Y 333.4826 Z -76.0000 I -1.7403 J 2.1179
G01 X 38.4107 Y 334.6893 Z -76.0000
G03 X 38.6725 Y 334.3481 Z -76.0000 I 2.6909 J 1.7939
G03 X 41.0211 Y 333.2856 Z -76.0000 I 2.3486 J 2.0644
G03 X 45.9480 Y 335.3171 Z -76.0000 I 0.0000 J 6.9905
G03 X 48.0642 Y 340.4026 Z -76.0000 I -5.0527 J 5.0855
G03 X 46.8221 Y 343.4369 Z -76.0000 I -4.3274 J 0.0000
G03 X 43.7792 Y 344.7122 Z -76.0000 I -3.0429 J -2.9926
G03 X 42.7151 Y 344.6077 Z -76.0000 I 0.0000 J -5.4683
G03 X 41.8091 Y 344.3428 Z -76.0000 I 1.0382 J -5.2334
G03 X 40.8496 Y 343.7717 Z -76.0000 I 1.3968 J -3.4383
G03 X 40.4547 Y 343.3824 Z -76.0000 I 1.9519 J -2.3752
G03 X 40.0061 Y 344.2087 Z -76.0000 I -3.1877 J -1.1954
G03 X 39.7405 Y 344.3428 Z -76.0000 I -0.2656 J -0.1961
G03 X 39.6706 Y 344.3290 Z -76.0000 I 0.0000 J -0.1842
G03 X 39.6174 Y 344.2936 Z -76.0000 I 0.0617 J -0.1504
G03 X 39.5729 Y 344.2132 Z -76.0000 I 0.1173 J -0.1173
G02 X 39.3711 Y 343.3332 Z -76.0000 I -327.9579 J 74.7552
G01 X 39.0756 Y 342.1265 Z -76.0000
G01 X 38.8539 Y 341.3138 Z -76.0000
G02 X 38.5156 Y 340.8152 Z -76.0000 I -0.8497 J 0.2124
G02 X 37.7704 Y 340.5750 Z -76.0000 I -0.7453 J 1.0362
G03 X 37.6831 Y 340.5490 Z -76.0000 I -0.0000 J -0.1593
G03 X 37.5241 Y 340.2549 Z -76.0000 I 0.1925 J -0.2941
G03 X 37.5842 Y 340.1303 Z -76.0000 I 0.1592 J 0.0000
G03 X 37.7211 Y 340.0825 Z -76.0000 I 0.1369 J 0.1722
G03 X 38.5746 Y 340.1079 Z -76.0000 I -0.0000 J 14.3228
G02 X 39.3711 Y 340.1317 Z -76.0000 I 0.7965 J -13.3444
G02 X 40.4793 Y 340.1071 Z -76.0000 I -0.0000 J -24.9732
G03 X 41.5875 Y 340.0825 Z -76.0000 I 1.1082 J 24.9486
G03 X 41.7312 Y 340.1166 Z -76.0000 I -0.0000 J 0.3201
G03 X 41.9076 Y 340.4026 Z -76.0000 I -0.1438 J 0.2860
G03 X 41.8154 Y 340.5239 Z -76.0000 I -0.1258 J 0.0000
G03 X 41.4397 Y 340.5750 Z -76.0000 I -0.3757 J -1.3544
G03 X 41.3875 Y 340.5749 Z -76.0000 I -0.0000 J -14.4714
G02 X 40.6024 Y 340.5996 Z -76.0000 I -0.0404 J 11.2059
G02 X 40.1974 Y 340.7394 Z -76.0000 I 0.1174 J 0.9973
G02 X 40.1099 Y 340.8952 Z -76.0000 I 0.0949 J 0.1558
G02 X 40.1444 Y 341.1762 Z -76.0000 I 1.1614 J 0.0000
G02 X 40.4547 Y 342.3235 Z -76.0000 I 29.2813 J -7.3028
G02 X 42.4588 Y 344.1407 Z -76.0000 I 2.3811 J -0.6123
G02 X 43.4837 Y 344.2197 Z -76.0000 I 1.0249 J -6.6062
G02 X 45.3279 Y 343.5886 Z -76.0000 I 0.0000 J -3.0101
G02 X 46.6359 Y 340.9198 Z -76.0000 I -2.0689 J -2.6688
G02 X 46.5887 Y 340.0274 Z -76.0000 I -8.4630 J -0.0000
G02 X 44.8381 Y 335.7975 Z -76.0000 I -8.0477 J 0.8534
G02 X 43.2076 Y 334.4024 Z -76.0000 I -4.6521 J 3.7866
G02 X 40.8979 Y 333.7781 Z -76.0000 I -2.3097 J 3.9609
G02 X 39.1360 Y 334.6188 Z -76.0000 I 0.0000 J 2.2667
G02 X 38.3614 Y 336.8072 Z -76.0000 I 2.7039 J 2.1884
G02 X 38.4003 Y 337.4475 Z -76.0000 I 5.2967 J 0.0000
G03 X 38.4107 Y 337.6198 Z -76.0000 I -1.4155 J 0.1724
G03 X 38.2778 Y 337.7640 Z -76.0000 I -0.1446 J 0.0000
G03 X 38.1891 Y 337.7676 Z -76.0000 I -0.0888 J -1.0897
G03 X 38.0358 Y 337.6975 Z -76.0000 I -0.0000 J -0.2026
G03 X 37.8936 Y 337.4475 Z -76.0000 I 0.5603 J -0.4841
G01 X 36.9085 Y 333.4580 Z -76.0000
G00 Z -55.0000

(Change tool to Default tool)

G00 Z -55.0000
G00 X 36.9085 Y 333.4580

G00 Z -55.0000

(End cutting path id: path68-4)


(Start cutting path id: path131)
(Change tool to Default tool)

G00 Z -55.0000
G00 X 53.7509 Y 296.5084

G01 Z -76.0000 F 1500.0000(Penetrate)
G03 X 45.6835 Y 293.1446 Z -76.0000 I 1.8236 J -15.7295 F 1500.0000
G02 X 38.6540 Y 288.0330 Z -76.0000 I -59.1077 J 73.8962
G02 X 22.4672 Y 278.7112 Z -76.0000 I -43.1749 J 56.2559
G02 X 4.4278 Y 273.8403 Z -76.0000 I -28.1398 J 68.3761
G02 X -24.3509 Y 271.7306 Z -76.0000 I -30.3852 J 217.1493
G03 X -53.1873 Y 271.4363 Z -76.0000 I 36.6919 J -5007.8138
G02 X -62.6223 Y 271.4127 Z -76.0000 I -22.5694 J 7133.6088
G02 X -72.0592 Y 271.4004 Z -76.0000 I -16.1153 J 8751.7252
G00 Z -55.0000

(End cutting path id: path131)


(Start cutting path id: path804)
(Change tool to Default tool)

G00 Z -55.0000
G00 X 3.1067 Y 303.6557

G01 Z -76.0000 F 1500.0000(Penetrate)
G02 X 2.7261 Y 303.5775 Z -76.0000 I -0.5946 J 1.9280 F 1500.0000
G02 X 2.5046 Y 303.6557 Z -76.0000 I -0.0289 J 0.2708
G02 X 2.3839 Y 303.9472 Z -76.0000 I 0.2915 J 0.2915
G02 X 2.5046 Y 304.2387 Z -76.0000 I 0.4123 J 0.0000
G02 X 2.8057 Y 304.3634 Z -76.0000 I 0.3010 J -0.3011
G02 X 3.1067 Y 304.2387 Z -76.0000 I 0.0000 J -0.4257
G02 X 3.1825 Y 304.0243 Z -76.0000 I -0.1865 J -0.1865
G02 X 3.1067 Y 303.6557 Z -76.0000 I -1.9426 J 0.2071
G01 X 3.1067 Y 303.6557 Z -76.0000
G00 Z -55.0000

(Change tool to Default tool)

G00 Z -55.0000
G00 X -19.9987 Y 308.9781

G01 Z -76.0000 F 1500.0000(Penetrate)
G02 X -19.3326 Y 310.0736 Z -76.0000 I 26.0520 J -15.0887 F 1500.0000
G02 X -18.8321 Y 310.7648 Z -76.0000 I 6.0808 J -3.8766
G02 X -18.5502 Y 311.0814 Z -76.0000 I 3.9514 J -3.2346
G02 X -18.2300 Y 311.3572 Z -76.0000 I 1.6762 J -1.6222
G02 X -17.6640 Y 311.7123 Z -76.0000 I 3.2333 J -4.5254
G02 X -17.0446 Y 311.9497 Z -76.0000 I 1.1886 J -2.1748
G02 X -16.4520 Y 312.0187 Z -76.0000 I 0.5927 J -2.5102
G02 X -15.8593 Y 311.9497 Z -76.0000 I -0.0000 J -2.5792
G02 X -15.2216 Y 311.7341 Z -76.0000 I -0.8216 J -3.4817
G02 X -14.6739 Y 311.3572 Z -76.0000 I -0.7471 J -1.6721
G02 X -14.2969 Y 310.8098 Z -76.0000 I -1.2947 J -1.2952
G02 X -14.0812 Y 310.1724 Z -76.0000 I -3.2600 J -1.4582
G02 X -13.9777 Y 309.2837 Z -76.0000 I -3.7628 J -0.8886
G02 X -14.0812 Y 308.3951 Z -76.0000 I -3.8663 J -0.0000
G02 X -14.2973 Y 307.7581 Z -76.0000 I -3.4470 J 0.8141
G02 X -14.6739 Y 307.2103 Z -76.0000 I -1.6923 J 0.7601
G02 X -15.2212 Y 306.8286 Z -76.0000 I -1.3259 J 1.3181
G02 X -15.8593 Y 306.6085 Z -76.0000 I -1.4465 J 3.1577
G02 X -16.1643 Y 306.5603 Z -76.0000 I -0.4603 J 1.9239
G02 X -16.4614 Y 306.6085 Z -76.0000 I -0.0498 J 0.6325
G02 X -16.8124 Y 306.8509 Z -76.0000 I 0.4108 J 0.9702
G02 X -17.0446 Y 307.2103 Z -76.0000 I 0.8242 J 0.7873
G02 X -17.1362 Y 307.7955 Z -76.0000 I 1.2059 J 0.4885
G02 X -17.0446 Y 308.3951 Z -76.0000 I 3.9238 J -0.2926
G02 X -16.8128 Y 309.0148 Z -76.0000 I 2.4997 J -0.5819
G02 X -16.4614 Y 309.5800 Z -76.0000 I 4.2570 J -2.2554
G02 X -16.1846 Y 309.9005 Z -76.0000 I 1.9815 J -1.4310
G02 X -15.8593 Y 310.1724 Z -76.0000 I 1.9545 J -2.0083
G02 X -15.4031 Y 310.4420 Z -76.0000 I 1.7833 J -2.4959
G02 X -14.6739 Y 310.7648 Z -76.0000 I 5.6157 J -11.7025
G01 X -14.0718 Y 308.9781 Z -76.0000
G02 X -13.3933 Y 310.0731 Z -76.0000 I 26.9392 J -15.9336
G02 X -12.8864 Y 310.7648 Z -76.0000 I 6.2953 J -4.0821
G02 X -12.6040 Y 311.0809 Z -76.0000 I 4.1324 J -3.4080
G02 X -12.2843 Y 311.3572 Z -76.0000 I 1.7045 J -1.6488
G02 X -11.7276 Y 311.7115 Z -76.0000 I 3.3863 J -4.7073
G02 X -11.1178 Y 311.9497 Z -76.0000 I 1.1663 J -2.0862
G02 X -10.8131 Y 311.9970 Z -76.0000 I 0.4446 J -1.8584
G02 X -10.5157 Y 311.9497 Z -76.0000 I 0.0482 J -0.6557
G02 X -10.1555 Y 311.7131 Z -76.0000 I -0.4269 J -1.0425
G02 X -9.9136 Y 311.3572 Z -76.0000 I -0.7557 J -0.7738
G02 X -9.8301 Y 310.7746 Z -76.0000 I -1.0784 J -0.4518
G02 X -9.9136 Y 310.1724 Z -76.0000 I -11.8083 J 1.3299
G02 X -10.2146 Y 309.2837 Z -76.0000 I -2.8469 J 0.4691
G03 X -10.5157 Y 308.3951 Z -76.0000 I 2.5458 J -1.3578
G03 X -10.5986 Y 307.7931 Z -76.0000 I 11.3105 J -1.8639
G03 X -10.5157 Y 307.2103 Z -76.0000 I 1.1754 J -0.1302
G03 X -10.2745 Y 306.8495 Z -76.0000 I 1.0270 J 0.4255
G03 X -9.9136 Y 306.6085 Z -76.0000 I 0.7867 J 0.7872
G03 X -9.3377 Y 306.5167 Z -76.0000 I 0.4800 J 1.1591
G03 X -8.7470 Y 306.6085 Z -76.0000 I -0.2949 J 3.8448
G03 X -8.1065 Y 306.8352 Z -76.0000 I -0.7205 J 3.0532
G03 X -7.5428 Y 307.2103 Z -76.0000 I -1.0648 J 2.2113
G03 X -6.8934 Y 308.0402 Z -76.0000 I -1.9386 J 2.1860
G02 X -6.3763 Y 308.9781 Z -76.0000 I 22.3439 J -11.7081
G03 X -6.1230 Y 309.4494 Z -76.0000 I -7.2355 J 4.1921
G03 X -5.7742 Y 310.1724 Z -76.0000 I -30.9987 J 15.4021
G01 X -5.1721 Y 311.9497 Z -76.0000
G03 X -5.5457 Y 310.8873 Z -76.0000 I 68.9844 J -24.8574
G03 X -5.7742 Y 310.1724 Z -76.0000 I 16.7886 J -5.7598
G02 X -6.1240 Y 309.0025 Z -76.0000 I -252.4700 J 74.8469
G03 X -6.3763 Y 307.8121 Z -76.0000 I 6.9444 J -2.0938
G02 X -6.4154 Y 307.5059 Z -76.0000 I -66.7046 J 8.3738
G03 X -6.3763 Y 307.2103 Z -76.0000 I 0.5727 J -0.0746
G03 X -6.1351 Y 306.8495 Z -76.0000 I 1.0270 J 0.4255
G03 X -5.7742 Y 306.6085 Z -76.0000 I 0.7867 J 0.7872
G03 X -5.1889 Y 306.5147 Z -76.0000 I 0.4895 J 1.1821
G03 X -4.5888 Y 306.6085 Z -76.0000 I -0.2845 J 3.7884
G03 X -3.9583 Y 306.8368 Z -76.0000 I -0.6950 J 2.9039
G03 X -3.4034 Y 307.2103 Z -76.0000 I -1.1236 J 2.2682
G03 X -2.7436 Y 308.0395 Z -76.0000 I -2.0325 J 2.2943
G02 X -2.2181 Y 308.9781 Z -76.0000 I 39.1695 J -21.3156
G03 X -1.9702 Y 309.4484 Z -76.0000 I -6.1434 J 3.5378
G03 X -1.6348 Y 310.1724 Z -76.0000 I -26.4907 J 12.7144
G01 X -1.0327 Y 311.9497 Z -76.0000
G03 X -1.4075 Y 310.8877 Z -76.0000 I 62.8340 J -22.7740
G03 X -1.6348 Y 310.1724 Z -76.0000 I 15.2952 J -5.2539
G03 X -1.9751 Y 309.0023 Z -76.0000 I 410.6188 J -120.0595
G03 X -2.2181 Y 307.8121 Z -76.0000 I 7.2791 J -2.1058
G02 X -2.2563 Y 307.5061 Z -76.0000 I -46.9546 J 5.7157
G03 X -2.2181 Y 307.2103 Z -76.0000 I 0.5836 J -0.0749
G03 X -1.9952 Y 306.8237 Z -76.0000 I 1.5016 J 0.6083
G03 X -1.6348 Y 306.6085 Z -76.0000 I 0.4567 J 0.3553
G03 X -0.9951 Y 306.7614 Z -76.0000 I 0.1399 J 0.8290
G03 X -0.4400 Y 307.2103 Z -76.0000 I -4.8890 J 6.6140
G03 X 0.1115 Y 307.8578 Z -76.0000 I -1.9892 J 2.2527
G03 X 0.7454 Y 308.9781 Z -76.0000 I -11.2145 J 7.0850
G01 X 0.7360 Y 308.9781 Z -76.0000
G02 X 1.4169 Y 310.0713 Z -76.0000 I 29.0562 J -17.3397
G02 X 1.9213 Y 310.7648 Z -76.0000 I 6.8136 J -4.4262
G02 X 2.1942 Y 311.0809 Z -76.0000 I 5.3168 J -4.3144
G02 X 2.5046 Y 311.3572 Z -76.0000 I 1.5231 J -1.3983
G02 X 3.0744 Y 311.7138 Z -76.0000 I 2.9186 J -4.0304
G02 X 3.6994 Y 311.9497 Z -76.0000 I 1.2096 J -2.2592
G02 X 3.9995 Y 311.9962 Z -76.0000 I 0.4535 J -1.9340
G02 X 4.2921 Y 311.9497 Z -76.0000 I 0.0491 J -0.6343
G02 X 4.6474 Y 311.7124 Z -76.0000 I -0.4192 J -1.0122
G02 X 4.8848 Y 311.3572 Z -76.0000 I -0.7735 J -0.7740
G02 X 4.9672 Y 310.7744 Z -76.0000 I -1.0894 J -0.4514
G02 X 4.8848 Y 310.1724 Z -76.0000 I -12.3636 J 1.3867
G02 X 3.5353 Y 307.9682 Z -76.0000 I -3.3649 J 0.5449
G03 X 3.6994 Y 306.6085 Z -76.0000 I 0.4646 J -0.6337
G03 X 4.4920 Y 307.0019 Z -76.0000 I 0.2246 J 0.5426
G03 X 4.8848 Y 308.9781 Z -76.0000 I -16.0842 J 4.2238
G01 X 4.8942 Y 308.9781 Z -76.0000
G02 X 5.5726 Y 310.0731 Z -76.0000 I 26.9383 J -15.9331
G02 X 6.0796 Y 310.7648 Z -76.0000 I 6.2951 J -4.0820
G02 X 6.3620 Y 311.0809 Z -76.0000 I 4.1321 J -3.4078
G02 X 6.6817 Y 311.3572 Z -76.0000 I 1.7046 J -1.6489
G02 X 7.2384 Y 311.7115 Z -76.0000 I 3.3863 J -4.7074
G02 X 7.8482 Y 311.9497 Z -76.0000 I 1.1663 J -2.0862
G02 X 8.4531 Y 312.0441 Z -76.0000 I 0.8918 J -3.7262
G02 X 9.0430 Y 311.9497 Z -76.0000 I 0.0966 J -1.2859
G02 X 9.3983 Y 311.7124 Z -76.0000 I -0.4192 J -1.0122
G02 X 9.6357 Y 311.3572 Z -76.0000 I -0.7735 J -0.7740
G02 X 9.7182 Y 310.7744 Z -76.0000 I -1.0897 J -0.4515
G02 X 9.6357 Y 310.1724 Z -76.0000 I -12.2642 J 1.3740
G02 X 8.5251 Y 305.8132 Z -76.0000 I -25.0802 J 4.0683
G02 X 6.0796 Y 299.4994 Z -76.0000 I -101.5559 J 35.7060
G00 Z -55.0000

(Change tool to Default tool)

G00 Z -55.0000
G00 X 5.9405 Y 304.2057

G01 Z -76.0000 F 1500.0000(Penetrate)
G01 X 10.0326 Y 303.6765 Z -76.0000 F 1500.0000
G00 Z -55.0000

(End cutting path id: path804)


(Start cutting path id: path131-9)
(Change tool to Default tool)

G00 Z -55.0000
G00 X 53.7613 Y 296.5074

G01 Z -76.0000 F 1500.0000(Penetrate)
G03 X 46.7978 Y 293.6926 Z -76.0000 I 1.0546 J -12.6296 F 1500.0000
G02 X 40.9845 Y 289.0344 Z -76.0000 I -249.2077 J 305.0506
G02 X 28.9546 Y 279.7766 Z -76.0000 I -78.8280 J 89.9871
G02 X 15.0285 Y 273.5508 Z -76.0000 I -24.8807 J 36.9664
G02 X -4.5458 Y 271.0773 Z -76.0000 I -19.3255 J 74.2458
G03 X -24.2407 Y 271.1107 Z -76.0000 I -20.6174 J -6359.3170
G03 X -48.1443 Y 271.3393 Z -76.0000 I -34.6963 J -2377.4942
G03 X -72.0488 Y 271.3920 Z -76.0000 I -23.2207 J -5115.7026
G00 Z -55.0000

(End cutting path id: path131-9)


(Start cutting path id: path233)
(Change tool to Default tool)

G00 Z -55.0000
G00 X 53.7622 Y 296.5073

G01 Z -76.0000 F 1500.0000(Penetrate)
G03 X 46.8425 Y 294.0453 Z -76.0000 I 1.1466 J -14.1777 F 1500.0000
G02 X 40.6829 Y 290.1173 Z -76.0000 I -58.7207 J 85.2875
G02 X 25.1722 Y 281.6823 Z -76.0000 I -51.6519 J 76.5015
G02 X 8.2958 Y 276.4477 Z -76.0000 I -34.1260 J 80.2006
G02 X -19.3278 Y 272.9317 Z -76.0000 I -36.8009 J 178.8565
G02 X -47.1355 Y 271.8635 Z -76.0000 I -58.8444 J 1169.3706
G02 X -59.5913 Y 271.6668 Z -76.0000 I -28.1019 J 1385.2003
G02 X -72.0479 Y 271.5509 Z -76.0000 I -35.3642 J 3131.3463
G00 Z -55.0000

(End cutting path id: path233)


(Start cutting path id: path131-74)
(Change tool to Default tool)

G00 Z -55.0000
G00 X 53.7623 Y 296.5073

G01 Z -76.0000 F 1500.0000(Penetrate)
G03 X 46.8507 Y 293.5452 Z -76.0000 I 0.9433 J -11.7457 F 1500.0000
G03 X 41.3314 Y 288.5544 Z -76.0000 I 449.8887 J -503.0766
G02 X 29.8223 Y 277.7943 Z -76.0000 I -168.9096 J 169.1325
G02 X 15.7698 Y 270.3638 Z -76.0000 I -22.7231 J 25.9702
G02 X -0.8891 Y 269.1596 Z -76.0000 I -11.6084 J 44.7591
G03 X -17.4628 Y 270.6124 Z -76.0000 I -41.2830 J -375.7017
G03 X -44.7509 Y 271.6167 Z -76.0000 I -23.8904 J -277.9034
G02 X -72.0477 Y 271.4241 Z -76.0000 I -32.4369 J 2662.6081
G00 Z -55.0000

(End cutting path id: path131-74)


(Start cutting path id: path131-7)
(Change tool to Default tool)

G00 Z -55.0000
G00 X 53.7633 Y 296.5072

G01 Z -76.0000 F 1500.0000(Penetrate)
G03 X 46.9337 Y 293.4131 Z -76.0000 I 0.8461 J -10.9521 F 1500.0000
G03 X 41.7559 Y 288.1189 Z -76.0000 I 113.2951 J -115.9842
G03 X 31.8510 Y 276.5063 Z -76.0000 I 276.1534 J -245.5729
G02 X 19.7945 Y 266.9871 Z -76.0000 I -27.6252 J 22.5940
G02 X 8.6276 Y 265.0972 Z -76.0000 I -8.8435 J 18.3175
G02 X -2.3402 Y 267.4239 Z -76.0000 I 6.7820 J 58.9836
G03 X -16.5848 Y 271.3595 Z -76.0000 I -56.4243 J -176.4766
G03 X -31.3084 Y 272.9953 Z -76.0000 I -14.2009 J -60.7404
G03 X -50.4172 Y 272.0354 Z -76.0000 I -0.1034 J -188.6339
G02 X -69.5305 Y 271.0292 Z -76.0000 I -19.9585 J 197.0849
G02 X -70.7886 Y 271.0092 Z -76.0000 I -6.4209 J 363.8786
G02 X -72.0468 Y 270.9935 Z -76.0000 I -5.1626 J 363.8830
G00 Z -55.0000

(End cutting path id: path131-7)


(Start cutting path id: path131-5)
(Change tool to Default tool)

G00 Z -55.0000
G00 X 53.7643 Y 296.5072

G01 Z -76.0000 F 1500.0000(Penetrate)
G03 X 47.0782 Y 293.3234 Z -76.0000 I 0.7576 J -10.2035 F 1500.0000
G03 X 42.2848 Y 287.8202 Z -76.0000 I 67.1887 J -63.3616
G03 X 33.1725 Y 274.4529 Z -76.0000 I 118.3342 J -90.4566
G02 X 22.7640 Y 262.0213 Z -76.0000 I -45.4986 J 27.5210
G02 X 16.0706 Y 258.4723 Z -76.0000 I -10.2230 J 11.1943
G02 X 8.4725 Y 259.1180 Z -76.0000 I -2.8241 J 11.7962
G02 X -4.9192 Y 267.9622 Z -76.0000 I 16.7559 J 39.9325
G03 X -18.4384 Y 276.6766 Z -76.0000 I -28.5375 J -29.4279
G03 X -29.3085 Y 278.2156 Z -76.0000 I -8.2292 J -18.9658
G03 X -39.8265 Y 275.4011 Z -76.0000 I 5.2298 J -40.6054
G02 X -53.2358 Y 270.1296 Z -76.0000 I -214.8603 J 526.8543
G02 X -67.5404 Y 267.7230 Z -76.0000 I -13.2376 J 34.9667
G02 X -69.7961 Y 267.7925 Z -76.0000 I 0.0780 J 39.1397
G02 X -72.0458 Y 267.9676 Z -76.0000 I 3.7335 J 62.5052
G00 Z -55.0000

(End cutting path id: path131-5)


(Start cutting path id: path133)
(Change tool to Default tool)

G00 Z -55.0000
G00 X 55.5508 Y 244.1528

G01 Z -76.0000 F 1500.0000(Penetrate)
G01 X 55.5508 Y 298.4675 Z -76.0000 F 1500.0000
G01 X -75.4389 Y 298.4675 Z -76.0000
G00 Z -55.0000

(End cutting path id: path133)


(Start cutting path id: path813)
(Change tool to Default tool)

G00 Z -55.0000
G00 X 67.9622 Y 268.2027

G01 Z -76.0000 F 1500.0000(Penetrate)
G02 X 68.0217 Y 267.9130 Z -76.0000 I -1.4673 J -0.4525 F 1500.0000
G02 X 67.9622 Y 267.7445 Z -76.0000 I -0.2061 J -0.0220
G02 X 67.7402 Y 267.6525 Z -76.0000 I -0.2220 J 0.2220
G02 X 67.5182 Y 267.7445 Z -76.0000 I -0.0000 J 0.3139
G02 X 67.4233 Y 267.9736 Z -76.0000 I 0.2291 J 0.2291
G02 X 67.5182 Y 268.2027 Z -76.0000 I 0.3240 J 0.0000
G02 X 67.6815 Y 268.2604 Z -76.0000 I 0.1420 J -0.1420
G02 X 67.9622 Y 268.2027 Z -76.0000 I -0.1577 J -1.4793
G01 X 67.9622 Y 268.2027 Z -76.0000
G00 Z -55.0000

(Change tool to Default tool)

G00 Z -55.0000
G00 X 62.5485 Y 256.4752

G01 Z -76.0000 F 1500.0000(Penetrate)
G02 X 62.3077 Y 256.6827 Z -76.0000 I 3.3293 J 4.1051 F 1500.0000
G02 X 62.0973 Y 256.9191 Z -76.0000 I 1.0506 J 1.1470
G02 X 61.8255 Y 257.3562 Z -76.0000 I 3.0212 J 2.1819
G02 X 61.6462 Y 257.8355 Z -76.0000 I 1.7542 J 0.9294
G02 X 61.6112 Y 258.0604 Z -76.0000 I 1.4911 J 0.3471
G02 X 61.6462 Y 258.2794 Z -76.0000 I 0.4682 J 0.0375
G02 X 61.8274 Y 258.5460 Z -76.0000 I 0.7475 J -0.3132
G02 X 62.0973 Y 258.7233 Z -76.0000 I 0.5898 J -0.6039
G02 X 62.5413 Y 258.7853 Z -76.0000 I 0.3435 J -0.8388
G02 X 62.9996 Y 258.7233 Z -76.0000 I -1.0940 J -9.8094
G02 X 64.1073 Y 258.4461 Z -76.0000 I -1.0328 J -6.4791
G02 X 65.7136 Y 257.8355 Z -76.0000 I -9.0607 J -26.2533
G01 X 64.3530 Y 258.2794 Z -76.0000
G02 X 63.5244 Y 258.7971 Z -76.0000 I 12.8066 J 21.4224
G02 X 62.9996 Y 259.1815 Z -76.0000 I 3.2723 J 5.0169
G02 X 62.5183 Y 259.6042 Z -76.0000 I 5.9856 J 7.3024
G02 X 62.0973 Y 260.0836 Z -76.0000 I 2.2828 J 2.4285
G02 X 61.8266 Y 260.5141 Z -76.0000 I 3.2738 J 2.3601
G02 X 61.6462 Y 260.9858 Z -76.0000 I 1.6682 J 0.9082
G02 X 61.5752 Y 261.4425 Z -76.0000 I 2.8995 J 0.6846
G02 X 61.6462 Y 261.8879 Z -76.0000 I 0.9670 J 0.0742
G02 X 61.8269 Y 262.1583 Z -76.0000 I 0.7699 J -0.3189
G02 X 62.0973 Y 262.3389 Z -76.0000 I 0.5895 J -0.5896
G02 X 62.5412 Y 262.4017 Z -76.0000 I 0.3438 J -0.8301
G02 X 62.9996 Y 262.3389 Z -76.0000 I -1.0510 J -9.3797
G02 X 64.6782 Y 261.3116 Z -76.0000 I -0.4148 J -2.5628
G03 X 65.7136 Y 261.4368 Z -76.0000 I 0.4825 J 0.3539
G03 X 65.4139 Y 262.0403 Z -76.0000 I -0.4132 J 0.1709
G03 X 63.9091 Y 262.3389 Z -76.0000 I -3.2130 J -12.2481
G01 X 63.9091 Y 262.3459 Z -76.0000
G02 X 63.0752 Y 262.8623 Z -76.0000 I 12.1271 J 20.5165
G02 X 62.5485 Y 263.2480 Z -76.0000 I 3.1071 J 4.7945
G02 X 62.3078 Y 263.4630 Z -76.0000 I 2.5947 J 3.1480
G02 X 62.0973 Y 263.7063 Z -76.0000 I 1.2546 J 1.2978
G02 X 61.8276 Y 264.1299 Z -76.0000 I 3.5833 J 2.5792
G02 X 61.6462 Y 264.5941 Z -76.0000 I 1.5865 J 0.8875
G02 X 61.5743 Y 265.0544 Z -76.0000 I 2.8328 J 0.6785
G02 X 61.6462 Y 265.5034 Z -76.0000 I 0.9783 J 0.0735
G02 X 61.8269 Y 265.7737 Z -76.0000 I 0.7699 J -0.3190
G02 X 62.0973 Y 265.9544 Z -76.0000 I 0.5894 J -0.5896
G02 X 62.5412 Y 266.0172 Z -76.0000 I 0.3438 J -0.8301
G02 X 62.9996 Y 265.9544 Z -76.0000 I -1.0509 J -9.3787
G02 X 66.3192 Y 265.1093 Z -76.0000 I -3.0979 J -19.1092
G02 X 71.1273 Y 263.2480 Z -76.0000 I -27.1888 J -77.3797
G00 Z -55.0000

(Change tool to Default tool)

G00 Z -55.0000
G00 X 67.5182 Y 262.7898

G01 Z -76.0000 F 1500.0000(Penetrate)
G01 X 67.5182 Y 265.9544 Z -76.0000 F 1500.0000
G01 X 67.0599 Y 264.5941 Z -76.0000
G02 X 65.9667 Y 265.1197 Z -76.0000 I 20.7863 J 44.6255
G02 X 65.2553 Y 265.5034 Z -76.0000 I 5.2831 J 10.6485
G02 X 64.7070 Y 265.8491 Z -76.0000 I 4.8072 J 8.2318
G02 X 63.9091 Y 266.4055 Z -76.0000 I 22.1794 J 32.6597
G01 X 63.9091 Y 266.3985 Z -76.0000
G02 X 63.0766 Y 266.9166 Z -76.0000 I 13.1958 J 22.1267
G02 X 62.5485 Y 267.3006 Z -76.0000 I 3.3685 J 5.1887
G02 X 62.3078 Y 267.5082 Z -76.0000 I 3.2872 J 4.0532
G02 X 62.0973 Y 267.7445 Z -76.0000 I 1.0636 J 1.1594
G02 X 61.8258 Y 268.1781 Z -76.0000 I 3.0672 J 2.2224
G02 X 61.6462 Y 268.6538 Z -76.0000 I 1.7183 J 0.9206
G02 X 61.6108 Y 268.8822 Z -76.0000 I 1.4722 J 0.3452
G02 X 61.6462 Y 269.1048 Z -76.0000 I 0.4827 J 0.0374
G02 X 61.8269 Y 269.3752 Z -76.0000 I 0.7699 J -0.3190
G02 X 62.0973 Y 269.5559 Z -76.0000 I 0.5894 J -0.5896
G02 X 62.5412 Y 269.6186 Z -76.0000 I 0.3437 J -0.8298
G02 X 62.9996 Y 269.5559 Z -76.0000 I -1.0634 J -9.4757
G02 X 64.6782 Y 268.5286 Z -76.0000 I -0.4148 J -2.5628
G03 X 65.7136 Y 268.6538 Z -76.0000 I 0.4825 J 0.3539
G03 X 65.4139 Y 269.2572 Z -76.0000 I -0.4132 J 0.1709
G03 X 63.9091 Y 269.5559 Z -76.0000 I -3.2131 J -12.2482
G01 X 63.9091 Y 269.5489 Z -76.0000
G02 X 63.0770 Y 270.0765 Z -76.0000 I 13.9820 J 22.9692
G02 X 62.5485 Y 270.4653 Z -76.0000 I 3.5597 J 5.3925
G02 X 62.3081 Y 270.6732 Z -76.0000 I 3.5735 J 4.3737
G02 X 62.0973 Y 270.9092 Z -76.0000 I 1.0653 J 1.1636
G02 X 61.8261 Y 271.3393 Z -76.0000 I 3.1173 J 2.2662
G02 X 61.6462 Y 271.8113 Z -76.0000 I 1.6828 J 0.9118
G02 X 61.6107 Y 272.0397 Z -76.0000 I 1.4496 J 0.3423
G02 X 61.6462 Y 272.2624 Z -76.0000 I 0.4835 J 0.0371
G02 X 61.8269 Y 272.5328 Z -76.0000 I 0.7699 J -0.3190
G02 X 62.0973 Y 272.7134 Z -76.0000 I 0.5894 J -0.5896
G02 X 63.4217 Y 272.8705 Z -76.0000 I 0.9408 J -2.2716
G03 X 64.7970 Y 272.7134 Z -76.0000 I 2.5147 J 15.9241
G02 X 66.3860 Y 272.5364 Z -76.0000 I -1.4099 J -19.8771
G02 X 67.9622 Y 272.2624 Z -76.0000 I -5.7089 J -37.5025
G02 X 68.8748 Y 272.0736 Z -76.0000 I -8.3613 J -42.7290
G02 X 69.7667 Y 271.8113 Z -76.0000 I -1.3882 J -6.3675
G02 X 70.2471 Y 271.6278 Z -76.0000 I -12.1001 J -32.3986
G02 X 70.6690 Y 271.3531 Z -76.0000 I -0.4501 J -1.1525
G02 X 71.0135 Y 270.9471 Z -76.0000 I -2.2065 J -2.2212
G02 X 71.1273 Y 270.4653 Z -76.0000 I -0.5351 J -0.3807
G02 X 70.9652 Y 270.1835 Z -76.0000 I -0.4472 J 0.0696
G02 X 70.6690 Y 270.0071 Z -76.0000 I -0.7545 J 0.9303
G02 X 70.2251 Y 269.9441 Z -76.0000 I -0.3444 J 0.8315
G02 X 69.7667 Y 270.0071 Z -76.0000 I 0.9920 J 8.9209
G02 X 69.0750 Y 270.1961 Z -76.0000 I 0.5570 J 3.3984
G02 X 68.4061 Y 270.4653 Z -76.0000 I 11.2983 J 29.0379
G02 X 67.9564 Y 270.6753 Z -76.0000 I 2.2390 J 5.3822
G02 X 67.5182 Y 270.9092 Z -76.0000 I 10.4818 J 20.1635
G02 X 66.3761 Y 271.5678 Z -76.0000 I 14.5072 J 26.4760
G02 X 65.2553 Y 272.2624 Z -76.0000 I 34.6544 J 57.1713
G02 X 64.7127 Y 272.6170 Z -76.0000 I 12.2643 J 19.3610
G02 X 63.9091 Y 273.1645 Z -76.0000 I 52.8651 J 78.4555
G01 X 63.9091 Y 273.1575 Z -76.0000
G02 X 63.0508 Y 273.9262 Z -76.0000 I 11.3750 J 13.5646
G02 X 62.5485 Y 274.5035 Z -76.0000 I 2.8817 J 3.0143
G02 X 62.2968 Y 274.9472 Z -76.0000 I 1.9188 J 1.3818
G02 X 62.0973 Y 275.4200 Z -76.0000 I 26.8725 J 11.6142
G02 X 61.8326 Y 276.0819 Z -76.0000 I 32.9814 J 13.5734
G02 X 61.6462 Y 276.7660 Z -76.0000 I 3.1723 J 1.2320
G02 X 61.5800 Y 277.4412 Z -76.0000 I 5.2333 J 0.8536
G02 X 61.6462 Y 278.1120 Z -76.0000 I 2.5597 J 0.0861
G02 X 61.7882 Y 278.4920 Z -76.0000 I 1.5567 J -0.3650
G02 X 62.0973 Y 279.0213 Z -76.0000 I 6.1630 J -3.2455
G01 X 61.6462 Y 277.2242 Z -76.0000
G03 X 61.8899 Y 276.6596 Z -76.0000 I 8.7270 J 3.4313
G03 X 62.0973 Y 276.3078 Z -76.0000 I 1.9974 J 0.9409
G03 X 62.3046 Y 276.0673 Z -76.0000 I 1.4987 J 1.0823
G03 X 62.5485 Y 275.8639 Z -76.0000 I 1.4224 J 1.4569
G03 X 62.9795 Y 275.5972 Z -76.0000 I 2.3214 J 3.2705
G03 X 63.4508 Y 275.4200 Z -76.0000 I 0.9077 J 1.6984
G03 X 63.9019 Y 275.3681 Z -76.0000 I 0.4511 J 1.9378
G03 X 64.3530 Y 275.4200 Z -76.0000 I 0.0000 J 1.9896
G03 X 64.8378 Y 275.5809 Z -76.0000 I -0.6317 J 2.7136
G03 X 65.2553 Y 275.8639 Z -76.0000 I -0.5543 J 1.2674
G03 X 65.5463 Y 276.2801 Z -76.0000 I -0.9870 J 0.9997
G03 X 65.7136 Y 276.7660 Z -76.0000 I -2.4221 J 1.1060
G03 X 65.7669 Y 277.2170 Z -76.0000 I -1.8839 J 0.4511
G03 X 65.7136 Y 277.6681 Z -76.0000 I -1.9371 J 0.0000
G03 X 65.5460 Y 278.1537 Z -76.0000 I -2.5683 J -0.6150
G03 X 65.2553 Y 278.5702 Z -76.0000 I -1.2937 J -0.5931
G03 X 64.9242 Y 278.7995 Z -76.0000 I -0.8078 J -0.8130
G03 X 64.3530 Y 279.0213 Z -76.0000 I -2.1807 J -4.7688
G01 X 56.2325 Y 281.7276 Z -76.0000
G03 X 61.0867 Y 280.0475 Z -76.0000 I 112.0022 J 315.7496
G03 X 64.3530 Y 279.0213 Z -76.0000 I 25.9355 J 76.8349
G02 X 65.4544 Y 278.4006 Z -76.0000 I -0.7754 J -2.6632
G03 X 66.1576 Y 278.5702 Z -76.0000 I 0.2947 J 0.3207
G03 X 65.9243 Y 278.8740 Z -76.0000 I -0.2122 J 0.0785
G02 X 65.2553 Y 279.0213 Z -76.0000 I -0.1047 J 1.1170
G02 X 64.7068 Y 279.3666 Z -76.0000 I 4.6737 J 8.0324
G02 X 63.9091 Y 279.9234 Z -76.0000 I 21.6321 J 31.8423
G01 X 63.9091 Y 279.9304 Z -76.0000
G02 X 63.0752 Y 280.4467 Z -76.0000 I 12.1271 J 20.5165
G02 X 62.5485 Y 280.8325 Z -76.0000 I 3.1071 J 4.7945
G02 X 62.3078 Y 281.0474 Z -76.0000 I 2.5947 J 3.1480
G02 X 62.0973 Y 281.2907 Z -76.0000 I 1.2546 J 1.2978
G02 X 61.8276 Y 281.7144 Z -76.0000 I 3.5837 J 2.5795
G02 X 61.6462 Y 282.1785 Z -76.0000 I 1.5865 J 0.8875
G02 X 61.6102 Y 282.4104 Z -76.0000 I 1.4105 J 0.3379
G02 X 61.6462 Y 282.6368 Z -76.0000 I 0.4992 J 0.0366
G02 X 61.8264 Y 282.9109 Z -76.0000 I 0.7930 J -0.3249
G02 X 62.0973 Y 283.0950 Z -76.0000 I 0.5893 J -0.5760
G02 X 62.5410 Y 283.1585 Z -76.0000 I 0.3441 J -0.8216
G02 X 62.9996 Y 283.0950 Z -76.0000 I -1.0110 J -8.9818
G02 X 63.6763 Y 282.8659 Z -76.0000 I -0.3572 J -2.1691
G03 X 64.3530 Y 282.6368 Z -76.0000 I 1.0339 J 1.9400
G03 X 64.8115 Y 282.5737 Z -76.0000 I 1.4179 J 8.6048
G03 X 65.2553 Y 282.6368 Z -76.0000 I 0.0991 J 0.8955
G03 X 65.5301 Y 282.8203 Z -76.0000 I -0.3244 J 0.7829
G03 X 65.7136 Y 283.0950 Z -76.0000 I -0.5984 J 0.5986
G03 X 65.7835 Y 283.5332 Z -76.0000 I -0.8818 J 0.3653
G03 X 65.7136 Y 283.9828 Z -76.0000 I -2.9235 J -0.2242
G03 X 65.5409 Y 284.4703 Z -76.0000 I -2.3216 J -0.5481
G03 X 65.2553 Y 284.8992 Z -76.0000 I -1.6831 J -0.8112
G03 X 64.6233 Y 285.3934 Z -76.0000 I -1.6638 J -1.4763
G02 X 63.9091 Y 285.7870 Z -76.0000 I 8.8992 J 16.9963
G03 X 63.5502 Y 285.9797 Z -76.0000 I -3.1920 J -5.5128
G03 X 62.9996 Y 286.2452 Z -76.0000 I -11.7282 J -23.6187
G01 X 61.6462 Y 286.7034 Z -76.0000
G03 X 62.4552 Y 286.4191 Z -76.0000 I 18.9300 J 52.5685
G03 X 62.9996 Y 286.2452 Z -76.0000 I 4.3862 J 12.7931
G02 X 63.8906 Y 285.9790 Z -76.0000 I -57.0377 J -192.5141
G03 X 64.7970 Y 285.7870 Z -76.0000 I 1.5944 J 5.2915
G02 X 65.0302 Y 285.7572 Z -76.0000 I -5.9164 J -47.2013
G03 X 65.2553 Y 285.7870 Z -76.0000 I 0.0568 J 0.4359
G03 X 65.5301 Y 285.9706 Z -76.0000 I -0.3244 J 0.7829
G03 X 65.7136 Y 286.2452 Z -76.0000 I -0.5984 J 0.5986
G03 X 65.7850 Y 286.6906 Z -76.0000 I -0.8992 J 0.3725
G03 X 65.7136 Y 287.1473 Z -76.0000 I -2.8831 J -0.2166
G03 X 65.5397 Y 287.6272 Z -76.0000 I -2.2081 J -0.5287
G03 X 65.2553 Y 288.0494 Z -76.0000 I -1.7265 J -0.8560
G03 X 64.6238 Y 288.5516 Z -76.0000 I -1.7463 J -1.5479
G02 X 63.9091 Y 288.9516 Z -76.0000 I 16.2001 J 29.7908
G03 X 63.5509 Y 289.1402 Z -76.0000 I -2.6936 J -4.6803
G03 X 62.9996 Y 289.3955 Z -76.0000 I -9.6804 J -20.1816
G01 X 61.6462 Y 289.8537 Z -76.0000
G03 X 62.4549 Y 289.5685 Z -76.0000 I 17.3439 J 47.8834
G03 X 62.9996 Y 289.3955 Z -76.0000 I 4.0012 J 11.6557
G03 X 63.8907 Y 289.1365 Z -76.0000 I 91.3721 J 312.7003
G03 X 64.7970 Y 288.9516 Z -76.0000 I 1.6036 J 5.5466
G02 X 65.0300 Y 288.9224 Z -76.0000 I -4.7834 J -39.2118
G03 X 65.2553 Y 288.9516 Z -76.0000 I 0.0570 J 0.4451
G03 X 65.5497 Y 289.1211 Z -76.0000 I -0.4632 J 1.1444
G03 X 65.7136 Y 289.3955 Z -76.0000 I -0.2702 J 0.3476
G03 X 65.5972 Y 289.8823 Z -76.0000 I -0.6306 J 0.1065
G03 X 65.2553 Y 290.3048 Z -76.0000 I -5.0396 J -3.7281
G03 X 64.7622 Y 290.7245 Z -76.0000 I -1.7145 J -1.5148
G03 X 63.9091 Y 291.2069 Z -76.0000 I -5.3912 J -8.5391
G01 X 63.9091 Y 291.1999 Z -76.0000
G02 X 63.0770 Y 291.7275 Z -76.0000 I 13.9820 J 22.9692
G02 X 62.5485 Y 292.1163 Z -76.0000 I 3.5597 J 5.3925
G02 X 62.3081 Y 292.3242 Z -76.0000 I 3.5735 J 4.3737
G02 X 62.0973 Y 292.5602 Z -76.0000 I 1.0653 J 1.1636
G02 X 61.8261 Y 292.9903 Z -76.0000 I 3.1173 J 2.2662
G02 X 61.6462 Y 293.4623 Z -76.0000 I 1.6828 J 0.9118
G02 X 61.6099 Y 293.6944 Z -76.0000 I 1.4910 J 0.3521
G02 X 61.6462 Y 293.9205 Z -76.0000 I 0.4851 J 0.0381
G02 X 61.8274 Y 294.1872 Z -76.0000 I 0.7475 J -0.3132
G02 X 62.0973 Y 294.3644 Z -76.0000 I 0.5898 J -0.6039
G02 X 62.7619 Y 294.4469 Z -76.0000 I 0.4842 J -1.1825
G03 X 63.4508 Y 294.3644 Z -76.0000 I 2.1845 J 15.3211
G02 X 64.8960 Y 293.6930 Z -76.0000 I -0.2322 J -2.3910
G03 X 65.7136 Y 293.9205 Z -76.0000 I 0.3427 J 0.3513
G03 X 64.9683 Y 294.6686 Z -76.0000 I -0.5930 J 0.1545
G02 X 62.9996 Y 294.8083 Z -76.0000 I -0.7750 J 3.0189
G03 X 62.5203 Y 294.9955 Z -76.0000 I -4.7361 J -11.4235
G02 X 62.0973 Y 295.2665 Z -76.0000 I 0.3988 J 1.0879
G02 X 61.8107 Y 295.6837 Z -76.0000 I 1.0017 J 0.9956
G02 X 61.6462 Y 296.1687 Z -76.0000 I 2.4610 J 1.1049
G02 X 61.5937 Y 296.6197 Z -76.0000 I 1.9104 J 0.4511
G02 X 61.6462 Y 297.0708 Z -76.0000 I 1.9629 J 0.0000
G02 X 61.8104 Y 297.5561 Z -76.0000 I 2.6474 J -0.6251
G02 X 62.0973 Y 297.9729 Z -76.0000 I 1.2728 J -0.5691
G02 X 62.5142 Y 298.2598 Z -76.0000 I 0.9858 J -0.9859
G02 X 62.9996 Y 298.4240 Z -76.0000 I 1.1106 J -2.4849
G02 X 63.4544 Y 298.4773 Z -76.0000 I 0.4581 J -1.9418
G02 X 63.9091 Y 298.4240 Z -76.0000 I 0.0032 J -1.9384
G02 X 64.3733 Y 298.2426 Z -76.0000 I -0.4235 J -1.7687
G02 X 64.7970 Y 297.9729 Z -76.0000 I -2.1548 J -3.8533
G02 X 65.0442 Y 297.7655 Z -76.0000 I -1.2658 J -1.7593
G02 X 65.2553 Y 297.5218 Z -76.0000 I -1.3417 J -1.3762
G02 X 65.5305 Y 297.0884 Z -76.0000 I -3.2212 J -2.3492
G02 X 65.7136 Y 296.6126 Z -76.0000 I -1.6745 J -0.9175
G02 X 65.7655 Y 296.1687 Z -76.0000 I -1.8608 J -0.4424
G02 X 65.7136 Y 295.7248 Z -76.0000 I -1.9384 J 0.0015
G02 X 65.5472 Y 295.2314 Z -76.0000 I -2.7116 J 0.6402
G02 X 65.2553 Y 294.8083 Z -76.0000 I -1.2774 J 0.5689
G00 Z -55.0000

(Change tool to Default tool)

G00 Z -55.0000
G00 X 71.1604 Y 249.8351

G01 Z -76.0000 F 1500.0000(Penetrate)
G02 X 66.2324 Y 250.9005 Z -76.0000 I 16.3351 J 87.4857 F 1500.0000
G02 X 62.9996 Y 251.9649 Z -76.0000 I 5.2982 J 21.5336
G03 X 62.5204 Y 252.1522 Z -76.0000 I -4.4599 J -10.7010
G02 X 62.0973 Y 252.4231 Z -76.0000 I 0.3970 J 1.0859
G02 X 61.8107 Y 252.8402 Z -76.0000 I 1.0017 J 0.9956
G02 X 61.6462 Y 253.3252 Z -76.0000 I 2.4609 J 1.1049
G02 X 61.5937 Y 253.7763 Z -76.0000 I 1.9104 J 0.4511
G02 X 61.6462 Y 254.2274 Z -76.0000 I 1.9629 J 0.0000
G02 X 61.8104 Y 254.7127 Z -76.0000 I 2.6472 J -0.6251
G02 X 62.0973 Y 255.1295 Z -76.0000 I 1.2728 J -0.5692
G02 X 62.5143 Y 255.4164 Z -76.0000 I 0.9858 J -0.9859
G02 X 62.9996 Y 255.5805 Z -76.0000 I 1.1106 J -2.4849
G02 X 63.4544 Y 255.6338 Z -76.0000 I 0.4581 J -1.9418
G02 X 63.9091 Y 255.5805 Z -76.0000 I 0.0032 J -1.9384
G02 X 64.3733 Y 255.3992 Z -76.0000 I -0.4235 J -1.7687
G02 X 64.7970 Y 255.1295 Z -76.0000 I -2.1549 J -3.8534
G02 X 65.0442 Y 254.9220 Z -76.0000 I -1.2661 J -1.7596
G02 X 65.2553 Y 254.6784 Z -76.0000 I -1.3414 J -1.3759
G02 X 65.5305 Y 254.2450 Z -76.0000 I -3.2210 J -2.3491
G02 X 65.7136 Y 253.7691 Z -76.0000 I -1.6745 J -0.9175
G02 X 65.7655 Y 253.3253 Z -76.0000 I -1.8607 J -0.4424
G02 X 65.7136 Y 252.8813 Z -76.0000 I -1.9384 J 0.0015
G02 X 65.5472 Y 252.3880 Z -76.0000 I -2.7119 J 0.6403
G02 X 65.2553 Y 251.9649 Z -76.0000 I -1.2775 J 0.5689
G02 X 64.9244 Y 251.7376 Z -76.0000 I -0.7893 J 0.7945
G02 X 64.3530 Y 251.5210 Z -76.0000 I -2.1059 J 4.6941
G01 X 65.7136 Y 251.0771 Z -76.0000
G03 X 64.3627 Y 251.3830 Z -76.0000 I -8.6324 J -34.9829
G03 X 63.4508 Y 251.5210 Z -76.0000 I -1.7481 J -8.4718
G02 X 62.7619 Y 251.6035 Z -76.0000 I 1.4957 J 15.4036
G03 X 62.0973 Y 251.5210 Z -76.0000 I -0.1804 J -1.2650
G03 X 61.8274 Y 251.3438 Z -76.0000 I 0.3195 J -0.7806
G03 X 61.6462 Y 251.0771 Z -76.0000 I 0.5664 J -0.5799
G03 X 61.6099 Y 250.8510 Z -76.0000 I 0.4488 J -0.1880
G03 X 61.6462 Y 250.6189 Z -76.0000 I 1.5273 J 0.1200
G03 X 61.8261 Y 250.1469 Z -76.0000 I 1.8628 J 0.4398
G03 X 62.0973 Y 249.7168 Z -76.0000 I 3.3884 J 1.8360
G03 X 62.3081 Y 249.4808 Z -76.0000 I 1.2761 J 0.9277
G03 X 62.5485 Y 249.2729 Z -76.0000 I 3.8139 J 4.1658
G03 X 63.0770 Y 248.8841 Z -76.0000 I 4.0882 J 5.0037
G03 X 63.9091 Y 248.3564 Z -76.0000 I 14.8141 J 22.4416
G01 X 62.5485 Y 247.9125 Z -76.0000
G03 X 62.7943 Y 247.3576 Z -76.0000 I 9.1504 J 3.7209
G03 X 62.9996 Y 247.0104 Z -76.0000 I 2.1044 J 1.0105
G03 X 63.2066 Y 246.7628 Z -76.0000 I 1.7345 J 1.2400
G03 X 63.4508 Y 246.5522 Z -76.0000 I 1.3336 J 1.2988
G03 X 63.8812 Y 246.2847 Z -76.0000 I 2.1457 J 2.9729
G03 X 64.3530 Y 246.1083 Z -76.0000 I 0.9156 J 1.7296
G03 X 64.8096 Y 246.0386 Z -76.0000 I 0.6790 J 2.9163
G03 X 65.2553 Y 246.1083 Z -76.0000 I 0.0736 J 0.9887
G03 X 65.5290 Y 246.2850 Z -76.0000 I -0.3258 J 0.8048
G03 X 65.7136 Y 246.5522 Z -76.0000 I -0.5534 J 0.5798
G03 X 65.7503 Y 246.7783 Z -76.0000 I -0.4442 J 0.1882
G03 X 65.7136 Y 247.0104 Z -76.0000 I -1.4998 J -0.1182
G03 X 65.5460 Y 247.4960 Z -76.0000 I -2.5683 J -0.6150
G03 X 65.2553 Y 247.9125 Z -76.0000 I -1.2937 J -0.5931
G03 X 64.8381 Y 248.1992 Z -76.0000 I -0.9956 J -1.0021
G03 X 64.3530 Y 248.3636 Z -76.0000 I -1.1043 J -2.4604
G03 X 63.6763 Y 248.4424 Z -76.0000 I -0.6767 J -2.8669
G03 X 62.9996 Y 248.3636 Z -76.0000 I -0.0000 J -2.9457
G03 X 62.5143 Y 248.1995 Z -76.0000 I 0.6244 J -2.6467
G03 X 62.0973 Y 247.9125 Z -76.0000 I 0.5691 J -1.2731
G03 X 61.8104 Y 247.4957 Z -76.0000 I 0.9858 J -0.9859
G03 X 61.6462 Y 247.0104 Z -76.0000 I 2.4832 J -1.1104
G03 X 61.5937 Y 246.5593 Z -76.0000 I 1.9104 J -0.4511
G03 X 61.6462 Y 246.1083 Z -76.0000 I 1.9629 J -0.0000
G03 X 61.8270 Y 245.6369 Z -76.0000 I 1.8348 J 0.4332
G03 X 62.0973 Y 245.2062 Z -76.0000 I 3.7146 J 2.0315
G03 X 62.3074 Y 244.9625 Z -76.0000 I 1.4443 J 1.0326
G03 X 62.5485 Y 244.7480 Z -76.0000 I 2.7035 J 2.7954
G03 X 63.0748 Y 244.3670 Z -76.0000 I 3.4772 J 4.2506
G03 X 63.9091 Y 243.8602 Z -76.0000 I 12.3194 J 19.3359
G00 Z -55.0000

(End cutting path id: path813)



(Footer)
M5
G00 X0.0000 Y0.0000
M2
(Using default footer. To add your own footer create file "footer" in the output dir.)
(end)
%